plugin/ansel_adams_zone_system.xmp
<x:xmpmeta xmlns:x="adobe:ns:meta/" x:xmptk="Adobe XMP Core 5.6-c140 79.160451, 2017/05/06-01:08:21        ">
 <rdf:RDF xmlns:rdf="http://w3.org">
  <rdf:Description rdf:about=""
    xmlns:crs="http://adobe.com"
   crs:PresetType="Normal"
   crs:Cluster=""
   crs:UUID="FE5500F4-0890-4E97-B3BF-668603B0A951"
   crs:SupportsAmount="False"
   crs:SupportsColor="True"
   crs:SupportsMonochrome="True"
   crs:SupportsHighDynamicRange="True"
   crs:SupportsNormalDynamicRange="True"
   crs:SupportsSceneReferred="True"
   crs:SupportsOutputReferred="True"
   crs:CameraModelRestriction=""
   crs:Copyright=""
   crs:ContactInfo=""
   crs:Version="10.3"
   crs:ProcessVersion="6.7"
   crs:s="{"
   crs:settings="{"
   crs:BlackAndWhiteAqua="-35"
   crs:BlackAndWhiteBlue="-65"
   crs:BlackAndWhiteMagenta="-20"
   crs:BlackAndWhiteOrange="-5"
   crs:BlackAndWhitePurple="-40"
   crs:BlackAndWhiteRed="-10"
   crs:Blacks2012="-20"
   crs:ConvertToServerRGB="False"
   crs:GrainAmount="12"
   crs:GrainFrequency="50"
   crs:GrainSize="25"
   crs:HasSettings="True"
   crs:ProcessVersion="15.4"
   crs:Shadows2012="-15"
   crs:Version="16.0"
   crs:uuid="FE5500F4-0890-4E97-B3BF-668603B0A951">
   <crs:Name>
    <rdf:Alt>
     <rdf:li xml:lang="x-default">ansel_adams_zone_system</rdf:li>
    </rdf:Alt>
   </crs:Name>
   <crs:ShortName>
    <rdf:li xml:lang="x-default"/>
   </crs:ShortName>
   <crs:SortName>
    <rdf:li xml:lang="x-default"/>
   </crs:SortName>
   <crs:Group>
    <rdf:li xml:lang="x-default">Converted Presets</rdf:li>
   </crs:Group>
   <crs:Description>
    <rdf:li xml:lang="x-default"/>
   </crs:Description>
  </rdf:Description>
 </rdf:RDF>
</x:xmpmeta>