plugin/ansel_adams_menacing_vignette.xmp
<x:xmpmeta xmlns:x="adobe:ns:meta/" x:xmptk="Adobe XMP Core 5.6-c140 79.160451, 2017/05/06-01:08:21        ">
 <rdf:RDF xmlns:rdf="http://w3.org">
  <rdf:Description rdf:about=""
    xmlns:crs="http://adobe.com"
   crs:PresetType="Normal"
   crs:Cluster=""
   crs:UUID="2BC9ABAE-C47D-424C-9BE1-0E9AB057939A"
   crs:SupportsAmount="False"
   crs:SupportsColor="True"
   crs:SupportsMonochrome="True"
   crs:SupportsHighDynamicRange="True"
   crs:SupportsNormalDynamicRange="True"
   crs:SupportsSceneReferred="True"
   crs:SupportsOutputReferred="True"
   crs:CameraModelRestriction=""
   crs:Copyright=""
   crs:ContactInfo=""
   crs:Version="10.3"
   crs:ProcessVersion="6.7"
   crs:s="{"
   crs:settings="{"
   crs:BlackAndWhiteAqua="-50"
   crs:BlackAndWhiteBlue="-85"
   crs:BlackAndWhiteMagenta="-20"
   crs:BlackAndWhiteOrange="-8"
   crs:BlackAndWhitePurple="-45"
   crs:BlackAndWhiteRed="-18"
   crs:Blacks2012="-18"
   crs:ColorGradingBalance="0"
   crs:ColorGradingBlending="50"
   crs:ColorGradingHighlightsHue="40"
   crs:ColorGradingHighlightsSat="5"
   crs:ColorGradingMidtonesHue="0"
   crs:ColorGradingMidtonesSat="0"
   crs:ColorGradingShadowsHue="215"
   crs:ColorGradingShadowsSat="8"
   crs:ConvertToServerRGB="False"
   crs:Exposure2012="-0.55"
   crs:FullX="0.5"
   crs:FullY="0.05"
   crs:GrainAmount="10"
   crs:GrainFrequency="50"
   crs:GrainSize="22"
   crs:HasSettings="True"
   crs:Highlights2012="-25"
   crs:MaskValue="1.0"
   crs:PostCropVignetteAmount="-18"
   crs:PostCropVignetteFeather="80"
   crs:PostCropVignetteHighlightBlend="50"
   crs:PostCropVignetteMidpoint="35"
   crs:PostCropVignetteRoundness="0"
   crs:PostCropVignetteStyle="1"
   crs:ProcessVersion="15.4"
   crs:Shadows2012="-12"
   crs:SplitTonerBalance="0"
   crs:SplitTonerHighlightHue="40"
   crs:SplitTonerHighlightSaturation="5"
   crs:SplitTonerOn="True"
   crs:SplitTonerShadowHue="215"
   crs:SplitTonerShadowSaturation="8"
   crs:Version="16.0"
   crs:ZeroX="0.5"
   crs:ZeroY="0.38"
   crs:uuid="2BC9ABAE-C47D-424C-9BE1-0E9AB057939A">
   <crs:Name>
    <rdf:Alt>
     <rdf:li xml:lang="x-default">ansel_adams_menacing_vignette</rdf:li>
    </rdf:Alt>
   </crs:Name>
   <crs:ShortName>
    <rdf:li xml:lang="x-default"/>
   </crs:ShortName>
   <crs:SortName>
    <rdf:li xml:lang="x-default"/>
   </crs:SortName>
   <crs:Group>
    <rdf:li xml:lang="x-default">Converted Presets</rdf:li>
   </crs:Group>
   <crs:Description>
    <rdf:li xml:lang="x-default"/>
   </crs:Description>
  </rdf:Description>
 </rdf:RDF>
</x:xmpmeta>