plugin/architectural_black_sky.xmp
<x:xmpmeta xmlns:x="adobe:ns:meta/" x:xmptk="Adobe XMP Core 5.6-c140 79.160451, 2017/05/06-01:08:21        ">
 <rdf:RDF xmlns:rdf="http://w3.org">
  <rdf:Description rdf:about=""
    xmlns:crs="http://adobe.com"
   crs:PresetType="Normal"
   crs:Cluster=""
   crs:UUID="2C089E86-F1E2-434D-BA01-A0BFC4710FEC"
   crs:SupportsAmount="False"
   crs:SupportsColor="True"
   crs:SupportsMonochrome="True"
   crs:SupportsHighDynamicRange="True"
   crs:SupportsNormalDynamicRange="True"
   crs:SupportsSceneReferred="True"
   crs:SupportsOutputReferred="True"
   crs:CameraModelRestriction=""
   crs:Copyright=""
   crs:ContactInfo=""
   crs:Version="10.3"
   crs:ProcessVersion="6.7"
   crs:s="{"
   crs:settings="{"
   crs:BlackAndWhiteAqua="-50"
   crs:BlackAndWhiteBlue="-80"
   crs:BlackAndWhiteGreen="-15"
   crs:BlackAndWhiteMagenta="-20"
   crs:BlackAndWhitePurple="-45"
   crs:BlackAndWhiteRed="0"
   crs:Blacks2012="-100"
   crs:Clarity2012="-50"
   crs:Contrast2012="-50"
   crs:ConvertToServerRGB="False"
   crs:Exposure2012="-4.5"
   crs:GrainAmount="0"
   crs:HasSettings="True"
   crs:Highlights2012="-100"
   crs:MaskValue="1.0"
   crs:ProcessVersion="15.4"
   crs:Shadows2012="-20"
   crs:Version="16.0"
   crs:uuid="2C089E86-F1E2-434D-BA01-A0BFC4710FEC">
   <crs:Name>
    <rdf:Alt>
     <rdf:li xml:lang="x-default">architectural_black_sky</rdf:li>
    </rdf:Alt>
   </crs:Name>
   <crs:ShortName>
    <rdf:li xml:lang="x-default"/>
   </crs:ShortName>
   <crs:SortName>
    <rdf:li xml:lang="x-default"/>
   </crs:SortName>
   <crs:Group>
    <rdf:li xml:lang="x-default">Converted Presets</rdf:li>
   </crs:Group>
   <crs:Description>
    <rdf:li xml:lang="x-default"/>
   </crs:Description>
  </rdf:Description>
 </rdf:RDF>
</x:xmpmeta>