plugin/butterfly.xmp
<x:xmpmeta xmlns:x="adobe:ns:meta/" x:xmptk="Adobe XMP Core 7.0-c000 1.000000, 0000/00/00-00:00:00">
 <rdf:RDF xmlns:rdf="http://www.w3.org/1999/02/22-rdf-syntax-ns#">
  <rdf:Description rdf:about=""
    xmlns:crs="http://ns.adobe.com/camera-raw-settings/1.0/"
   crs:Version="16.0"
   crs:ProcessVersion="15.4"
   crs:WhiteBalance="Custom"
   crs:Temperature="5350"
   crs:Tint="+8"
   crs:Exposure="+0.85"
   crs:Contrast="+25"
   crs:Highlights="-18"
   crs:Shadows="+32"
   crs:Whites="+15"
   crs:Blacks="-12"
   crs:Texture="+20"
   crs:Clarity="+15"
   crs:Dehaze="+5"
   crs:Vibrance="+18"
   crs:Saturation="+8"
   crs:ParametricShadows="0"
   crs:ParametricDarks="0"
   crs:ParametricLights="0"
   crs:ParametricHighlights="0"
   crs:Sharpness="40"
   crs:SharpenRadius="+1.0"
   crs:SharpenDetail="25"
   crs:SharpenEdgeMasking="10"
   crs:LuminanceSmoothing="15"
   crs:ColorNoiseReduction="25"
   crs:HueAdjustmentRed="-5"
   crs:HueAdjustmentOrange="0"
   crs:HueAdjustmentYellow="-8"
   crs:HueAdjustmentGreen="+12"
   crs:HueAdjustmentAqua="0"
   crs:HueAdjustmentBlue="0"
   crs:HueAdjustmentPurple="0"
   crs:HueAdjustmentMagenta="0"
   crs:SaturationAdjustmentRed="+22"
   crs:SaturationAdjustmentOrange="0"
   crs:SaturationAdjustmentYellow="-5"
   crs:SaturationAdjustmentGreen="+15"
   crs:SaturationAdjustmentAqua="0"
   crs:SaturationAdjustmentBlue="0"
   crs:SaturationAdjustmentPurple="0"
   crs:SaturationAdjustmentMagenta="0"
   crs:LuminanceAdjustmentRed="-8"
   crs:LuminanceAdjustmentOrange="0"
   crs:LuminanceAdjustmentYellow="+5"
   crs:LuminanceAdjustmentGreen="-4"
   crs:LuminanceAdjustmentAqua="0"
   crs:LuminanceAdjustmentBlue="0"
   crs:LuminanceAdjustmentPurple="0"
   crs:LuminanceAdjustmentMagenta="0"
   crs:HasSettings="True">
  </rdf:Description>
 </rdf:RDF>
</x:xmpmeta>
