plugin/Canon80D_Unmod_530nm_IR.xmp
<x:xmpmeta xmlns:x="adobe:ns:meta/" x:xmptk="Adobe XMP Core 7.0-c000 1.000000, 2026/01/01-00:00:00">
 <rdf:RDF xmlns:rdf="http://w3.org">
  <rdf:Description rdf:about=""
    xmlns:crs="http://adobe.com"
   crs:Version="16.0"
   crs:ProcessVersion="15.4"
   crs:PresetType="Look"
   crs:Cluster=""
   crs:UUID="C80D530N-UNMOD-IR-BLUE-GOLD-2026"
   crs:SupportsAmount="True"
   crs:SupportsColor="True"
   crs:SupportsMonochrome="True"
   crs:SupportsHighDynamicRange="True"
   crs:SupportsNormalDynamicRange="True"
   crs:HasSettings="True">
   <crs:Name>
    <rdf:Alt>
     <rdf:li xml:lang="x-default">Canon 80D Unmod 530nm IR</rdf:li>
    </rdf:Alt>
   </crs:Name>
   <crs:ShortName>
    <rdf:Alt>
     <rdf:li xml:lang="x-default">80D Stock 530nm</rdf:li>
    </rdf:Alt>
   </crs:ShortName>
   <crs:Parameters>
    <rdf:Description
     crs:Temperature="2000"
     crs:Tint="-150"
     crs:Exposure="+1.85"
     crs:Contrast="+45"
     crs:Highlights="-40"
     crs:Shadows="+50"
     crs:Whites="+25"
     crs:Blacks="-20"
     crs:Texture="+20"
     crs:Clarity="+15"
     crs:Dehaze="+20"
     crs:Vibrance="+50"
     crs:Saturation="+15"
     crs:HueAdjustmentRed="-30"
     crs:HueAdjustmentOrange="-25"
     crs:HueAdjustmentYellow="-15"
     crs:HueAdjustmentGreen="-100"
     crs:HueAdjustmentAqua="+80"
     crs:HueAdjustmentBlue="-40"
     crs:HueAdjustmentPurple="-100"
     crs:HueAdjustmentMagenta="-100"
     crs:SaturationAdjustmentRed="+65"
     crs:SaturationAdjustmentOrange="+70"
     crs:SaturationAdjustmentYellow="+55"
     crs:SaturationAdjustmentGreen="-90"
     crs:SaturationAdjustmentAqua="+40"
     crs:SaturationAdjustmentBlue="+60"
     crs:SaturationAdjustmentPurple="-100"
     crs:SaturationAdjustmentMagenta="-100"
     crs:LuminanceAdjustmentRed="-15"
     crs:LuminanceAdjustmentOrange="+35"
     crs:LuminanceAdjustmentYellow="+40"
     crs:LuminanceAdjustmentBlue="-30">
     <!-- Targeted Local Hue Shift to pull the choked visible-red sky into a clean blue -->
     <crs:Masks>
      <rdf:Seq>
       <rdf:li>
        <rdf:Description
         crs:MaskActive="True"
         crs:MaskName="Stock Sensor 180 Swap"
         crs:MaskBlendMode="0"
         crs:MaskInverted="False"
         crs:MaskValue="1.0">
         <crs:MaskGroupBasedCorrections>
          <rdf:Seq>
           <rdf:li>
            <rdf:Description
             crs:CorrectionActive="True"
             crs:LocalHue="180.0">
             <crs:CorrectionMasks>
              <rdf:Seq>
               <rdf:li>
                <rdf:Description
                 crs:MaskType="Full"
                 crs:MaskActive="True"/>
               </rdf:li>
              </rdf:Seq>
             </crs:CorrectionMasks>
            </rdf:Description>
           </rdf:li>
          </rdf:Seq>
         </crs:MaskGroupBasedCorrections>
        </rdf:Description>
       </rdf:li>
      </rdf:Seq>
     </crs:Masks>
    </rdf:Description>
   </crs:Parameters>
  </rdf:Description>
 </rdf:RDF>
</x:xmpmeta>
