plugin/Cinema_Panavision_Anamorphic.xmp
<x:xmpmeta xmlns:x="adobe:ns:meta/" x:xmptk="Adobe XMP Core 5.6-c140 79.160451, 2017/05/06-01:08:21        ">
 <rdf:RDF xmlns:rdf="http://w3.org">
  <rdf:Description rdf:about=""
    xmlns:crs="http://adobe.com"
   crs:PresetType="Normal"
   crs:Cluster=""
   crs:UUID="00000000-0000-0000-0000-000000000000"
   crs:SupportsAmount="False"
   crs:SupportsColor="True"
   crs:SupportsMonochrome="True"
   crs:SupportsHighDynamicRange="True"
   crs:SupportsNormalDynamicRange="True"
   crs:SupportsSceneReferred="True"
   crs:SupportsOutputReferred="True"
   crs:CameraModelRestriction=""
   crs:Copyright=""
   crs:ContactInfo=""
   crs:Version="10.3"
   crs:ProcessVersion="6.7"
   crs:s="{"
   crs:settings="{"
   crs:Exposure2012="+0.14"
   crs:Contrast2012="+14"
   crs:Highlights2012="-26"
   crs:Shadows2012="+10"
   crs:Whites2012="-8"
   crs:Blacks2012="-12"
   crs:Clarity2012="-6"
   crs:Texture="-4"
   crs:Vibrance="+12"
   crs:Saturation="-4"
   crs:Temperature="-3"
   crs:Tint="+2"
   crs:ToneCurveName2012="Custom"
   crs:ToneCurvePV2012="{"
   crs:HueAdjustmentRed="+3"
   crs:SaturationAdjustmentRed="+8"
   crs:LuminanceAdjustmentRed="-2"
   crs:HueAdjustmentOrange="-2"
   crs:SaturationAdjustmentOrange="+6"
   crs:LuminanceAdjustmentOrange="+2"
   crs:HueAdjustmentYellow="-4"
   crs:HueAdjustmentGreen="+12"
   crs:SaturationAdjustmentGreen="-22"
   crs:LuminanceAdjustmentGreen="-4"
   crs:HueAdjustmentBlue="-10"
   crs:SaturationAdjustmentBlue="+14"
   crs:LuminanceAdjustmentBlue="-6"
   crs:PostCropVignetteAmount="-24"
   crs:PostCropVignetteMidpoint="40"
   crs:PostCropVignetteRoundness="-20"
   crs:PostCropVignetteFeather="70"
   crs:PostCropVignetteStyle="1"
   crs:Sharpness="40"
   crs:SharpenRadius="1.1"
   crs:SharpenDetail="25"
   crs:SharpenEdgeMasking="30"
   crs:uuid="E4F5A6B7-C8D9-40E1-A2B3-C4D5E6F7A8C1">
   <crs:Name>
    <rdf:Alt>
     <rdf:li xml:lang="x-default">Cinema_Panavision_Anamorphic</rdf:li>
    </rdf:Alt>
   </crs:Name>
   <crs:ShortName>
    <rdf:li xml:lang="x-default"/>
   </crs:ShortName>
   <crs:SortName>
    <rdf:li xml:lang="x-default"/>
   </crs:SortName>
   <crs:Group>
    <rdf:li xml:lang="x-default">Converted Presets</rdf:li>
   </crs:Group>
   <crs:Description>
    <rdf:li xml:lang="x-default"/>
   </crs:Description>
  </rdf:Description>
 </rdf:RDF>
</x:xmpmeta>