plugin/Classic_1970s_New_Color.xmp
<x:xmpmeta xmlns:x="adobe:ns:meta/" x:xmptk="Adobe XMP Core 5.6-c140 79.160451, 2017/05/06-01:08:21        ">
 <rdf:RDF xmlns:rdf="http://w3.org">
  <rdf:Description rdf:about=""
    xmlns:crs="http://adobe.com"
   crs:PresetType="Normal"
   crs:Cluster=""
   crs:UUID="00000000-0000-0000-0000-000000000000"
   crs:SupportsAmount="False"
   crs:SupportsColor="True"
   crs:SupportsMonochrome="True"
   crs:SupportsHighDynamicRange="True"
   crs:SupportsNormalDynamicRange="True"
   crs:SupportsSceneReferred="True"
   crs:SupportsOutputReferred="True"
   crs:CameraModelRestriction=""
   crs:Copyright=""
   crs:ContactInfo=""
   crs:Version="10.3"
   crs:ProcessVersion="6.7"
   crs:s="{"
   crs:settings="{"
   crs:Exposure2012="+0.10"
   crs:Contrast2012="+12"
   crs:Highlights2012="-18"
   crs:Shadows2012="+14"
   crs:Whites2012="-6"
   crs:Blacks2012="-8"
   crs:Clarity2012="-4"
   crs:Texture="-2"
   crs:Vibrance="+12"
   crs:Saturation="-5"
   crs:Temperature="+5"
   crs:Tint="-2"
   crs:ToneCurveName2012="Custom"
   crs:ToneCurvePV2012="{"
   crs:HueAdjustmentRed="-4"
   crs:SaturationAdjustmentRed="+18"
   crs:LuminanceAdjustmentRed="-4"
   crs:HueAdjustmentOrange="-2"
   crs:SaturationAdjustmentOrange="+6"
   crs:LuminanceAdjustmentOrange="+2"
   crs:HueAdjustmentYellow="-6"
   crs:SaturationAdjustmentYellow="+10"
   crs:HueAdjustmentGreen="+8"
   crs:SaturationAdjustmentGreen="-15"
   crs:LuminanceAdjustmentGreen="-2"
   crs:HueAdjustmentBlue="-8"
   crs:SaturationAdjustmentBlue="-12"
   crs:LuminanceAdjustmentBlue="-4"
   crs:PostCropVignetteAmount="-15"
   crs:PostCropVignetteMidpoint="45"
   crs:PostCropVignetteFeather="60"
   crs:PostCropVignetteStyle="1"
   crs:Sharpness="40"
   crs:SharpenRadius="1.1"
   crs:SharpenDetail="25"
   crs:SharpenEdgeMasking="25"
   crs:uuid="A2B3C4D5-E6F7-40E1-A2B3-C4D5E6F7A8C0">
   <crs:Name>
    <rdf:Alt>
     <rdf:li xml:lang="x-default">Classic_1970s_New_Color</rdf:li>
    </rdf:Alt>
   </crs:Name>
   <crs:ShortName>
    <rdf:li xml:lang="x-default"/>
   </crs:ShortName>
   <crs:SortName>
    <rdf:li xml:lang="x-default"/>
   </crs:SortName>
   <crs:Group>
    <rdf:li xml:lang="x-default">Converted Presets</rdf:li>
   </crs:Group>
   <crs:Description>
    <rdf:li xml:lang="x-default"/>
   </crs:Description>
  </rdf:Description>
 </rdf:RDF>
</x:xmpmeta>