plugin/fine_art_masterwork_landscape.xmp
<x:xmpmeta xmlns:x="adobe:ns:meta/" x:xmptk="Adobe XMP Core 5.6-c140 79.160451, 2017/05/06-01:08:21        ">
 <rdf:RDF xmlns:rdf="http://w3.org">
  <rdf:Description rdf:about=""
    xmlns:crs="http://adobe.com"
   crs:PresetType="Normal"
   crs:Cluster=""
   crs:UUID="5EB7D57B-215F-4D09-8F7F-0F92F2608D09"
   crs:SupportsAmount="False"
   crs:SupportsColor="True"
   crs:SupportsMonochrome="True"
   crs:SupportsHighDynamicRange="True"
   crs:SupportsNormalDynamicRange="True"
   crs:SupportsSceneReferred="True"
   crs:SupportsOutputReferred="True"
   crs:CameraModelRestriction=""
   crs:Copyright=""
   crs:ContactInfo=""
   crs:Version="10.3"
   crs:ProcessVersion="6.7"
   crs:s="{"
   crs:settings="{"
   crs:Blacks2012="-8"
   crs:Clarity2012="-12"
   crs:ColorGradingBalance="0"
   crs:ColorGradingBlending="55"
   crs:ColorGradingHighlightsHue="38"
   crs:ColorGradingHighlightsSat="12"
   crs:ColorGradingMidtonesHue="0"
   crs:ColorGradingMidtonesSat="0"
   crs:ColorGradingShadowsHue="215"
   crs:ColorGradingShadowsSat="10"
   crs:ConvertToServerRGB="True"
   crs:HasSettings="True"
   crs:Highlights2012="-30"
   crs:HueAdjustmentBlue="-5"
   crs:HueAdjustmentOrange="-2"
   crs:HueAdjustmentRed="0"
   crs:LuminanceAdjustmentBlue="-12"
   crs:LuminanceAdjustmentGreen="-8"
   crs:LuminanceAdjustmentRed="-2"
   crs:ProcessVersion="15.4"
   crs:Saturation="-4"
   crs:SaturationAdjustmentAqua="-5"
   crs:SaturationAdjustmentGreen="-15"
   crs:SaturationAdjustmentYellow="-10"
   crs:SplitTonerOn="True"
   crs:Version="16.0"
   crs:uuid="5EB7D57B-215F-4D09-8F7F-0F92F2608D09">
   <crs:Name>
    <rdf:Alt>
     <rdf:li xml:lang="x-default">fine_art_masterwork_landscape</rdf:li>
    </rdf:Alt>
   </crs:Name>
   <crs:ShortName>
    <rdf:li xml:lang="x-default"/>
   </crs:ShortName>
   <crs:SortName>
    <rdf:li xml:lang="x-default"/>
   </crs:SortName>
   <crs:Group>
    <rdf:li xml:lang="x-default">Converted Presets</rdf:li>
   </crs:Group>
   <crs:Description>
    <rdf:li xml:lang="x-default"/>
   </crs:Description>
  </rdf:Description>
 </rdf:RDF>
</x:xmpmeta>