plugin/Fujifilm_Velvia_50.xmp
<x:xmpmeta xmlns:x="adobe:ns:meta/" x:xmptk="Adobe XMP Core 5.6-c140 79.160451, 2017/05/06-01:08:21        ">
 <rdf:RDF xmlns:rdf="http://w3.org">
  <rdf:Description rdf:about=""
    xmlns:crs="http://adobe.com"
   crs:PresetType="Normal"
   crs:Cluster=""
   crs:UUID="2B66AA8C-DB0F-45E0-DF95-91DECC067DAA"
   crs:SupportsAmount="False"
   crs:SupportsColor="True"
   crs:SupportsMonochrome="True"
   crs:SupportsHighDynamicRange="True"
   crs:SupportsNormalDynamicRange="True"
   crs:SupportsSceneReferred="True"
   crs:SupportsOutputReferred="True"
   crs:CameraModelRestriction=""
   crs:Copyright=""
   crs:ContactInfo=""
   crs:Version="10.3"
   crs:ProcessVersion="6.7"
   crs:s="{"
   crs:settings="{"
   crs:Exposure="-0.10"
   crs:Contrast="+30"
   crs:Highlights="+12"
   crs:Shadows="-18"
   crs:Blacks="-10"
   crs:Clarity="+12"
   crs:Vibrance="+25"
   crs:Saturation="+10"
   crs:Temperature="-2"
   crs:Tint="+8"
   crs:ToneCurveName2012="Custom"
   crs:ToneCurvePV2012="{"
   crs:HueAdjustmentRed="+4"
   crs:SaturationAdjustmentRed="+25"
   crs:HueAdjustmentGreen="+15"
   crs:SaturationAdjustmentGreen="+30"
   crs:LuminanceAdjustmentGreen="-5"
   crs:HueAdjustmentBlue="-5"
   crs:SaturationAdjustmentBlue="+25"
   crs:LuminanceAdjustmentBlue="-12"
   crs:uuid="DB029ED0-0D3F-4932-B284-E4B527B458BF">
   <crs:Name>
    <rdf:Alt>
     <rdf:li xml:lang="x-default">Fujifilm_Velvia_50</rdf:li>
    </rdf:Alt>
   </crs:Name>
   <crs:ShortName>
    <rdf:li xml:lang="x-default"/>
   </crs:ShortName>
   <crs:SortName>
    <rdf:li xml:lang="x-default"/>
   </crs:SortName>
   <crs:Group>
    <rdf:li xml:lang="x-default">Converted Presets</rdf:li>
   </crs:Group>
   <crs:Description>
    <rdf:li xml:lang="x-default"/>
   </crs:Description>
  </rdf:Description>
 </rdf:RDF>
</x:xmpmeta>