plugin/Ilford HP5 Plus 400.xmp
<x:xmpmeta xmlns:x="adobe:ns:meta/" x:xmptk="Adobe XMP Core 5.6-c140 79.160451, 2017/05/06-01:08:21        ">
 <rdf:RDF xmlns:rdf="http://w3.org">
  <rdf:Description rdf:about=""
    xmlns:crs="http://adobe.com"
   crs:PresetType="Normal"
   crs:Cluster=""
   crs:UUID="00000000-0000-0000-0000-000000000000"
   crs:SupportsAmount="False"
   crs:SupportsColor="True"
   crs:SupportsMonochrome="True"
   crs:SupportsHighDynamicRange="True"
   crs:SupportsNormalDynamicRange="True"
   crs:SupportsSceneReferred="True"
   crs:SupportsOutputReferred="True"
   crs:CameraModelRestriction=""
   crs:Copyright=""
   crs:ContactInfo=""
   crs:Version="10.3"
   crs:ProcessVersion="6.7"
   crs:s="{"
   crs:settings="{"
   crs:ConvertToGrayscale="True"
   crs:Exposure="0.05"
   crs:Contrast="14"
   crs:Highlights="-5"
   crs:Shadows="10"
   crs:Blacks="5"
   crs:Clarity="8"
   crs:ToneCurveName2012="Custom"
   crs:ToneCurvePV2012="{"
   crs:GrayMixerRed="5"
   crs:GrayMixerOrange="3"
   crs:GrayMixerYellow="0"
   crs:GrayMixerGreen="-2"
   crs:GrayMixerAqua="-5"
   crs:GrayMixerBlue="-10"
   crs:GrayMixerPurple="-5"
   crs:GrayMixerMagenta="0"
   crs:GrainSize="35"
   crs:GrainFrequency="45"
   crs:GrainAmount="28"
   crs:uuid="F59C73CA-060D-4D40-AC6F-19CBB835D199">
   <crs:Name>
    <rdf:Alt>
     <rdf:li xml:lang="x-default">Ilford HP5 Plus 400</rdf:li>
    </rdf:Alt>
   </crs:Name>
   <crs:ShortName>
    <rdf:li xml:lang="x-default"/>
   </crs:ShortName>
   <crs:SortName>
    <rdf:li xml:lang="x-default"/>
   </crs:SortName>
   <crs:Group>
    <rdf:li xml:lang="x-default">Converted Presets</rdf:li>
   </crs:Group>
   <crs:Description>
    <rdf:li xml:lang="x-default"/>
   </crs:Description>
  </rdf:Description>
 </rdf:RDF>
</x:xmpmeta>