plugin/Kodak_Portra_400.xmp
<x:xmpmeta xmlns:x="adobe:ns:meta/" x:xmptk="Adobe XMP Core 5.6-c140 79.160451, 2017/05/06-01:08:21        ">
 <rdf:RDF xmlns:rdf="http://w3.org">
  <rdf:Description rdf:about=""
    xmlns:crs="http://adobe.com"
   crs:PresetType="Normal"
   crs:Cluster=""
   crs:UUID="5F11AA3F-CE4E-43B6-BA58-45BCFA9C318C"
   crs:SupportsAmount="False"
   crs:SupportsColor="True"
   crs:SupportsMonochrome="True"
   crs:SupportsHighDynamicRange="True"
   crs:SupportsNormalDynamicRange="True"
   crs:SupportsSceneReferred="True"
   crs:SupportsOutputReferred="True"
   crs:CameraModelRestriction=""
   crs:Copyright=""
   crs:ContactInfo=""
   crs:Version="10.3"
   crs:ProcessVersion="6.7"
   crs:s="{"
   crs:settings="{"
   crs:Exposure="+0.15"
   crs:Shadows="+10"
   crs:Contrast="-5"
   crs:Temperature="+6"
   crs:Tint="+2"
   crs:ToneCurveName2012="Custom"
   crs:ToneCurvePV2012="{"
   crs:HueAdjustmentRed="+5"
   crs:SaturationAdjustmentRed="+8"
   crs:LuminanceAdjustmentRed="+2"
   crs:HueAdjustmentOrange="-3"
   crs:SaturationAdjustmentOrange="+4"
   crs:HueAdjustmentGreen="-10"
   crs:SaturationAdjustmentGreen="-15"
   crs:HueAdjustmentBlue="-8"
   crs:SaturationAdjustmentBlue="-10"
   crs:uuid="62283714-DF7B-452C-AEB9-1D9B2EE5619C">
   <crs:Name>
    <rdf:Alt>
     <rdf:li xml:lang="x-default">Kodak_Portra_400</rdf:li>
    </rdf:Alt>
   </crs:Name>
   <crs:ShortName>
    <rdf:li xml:lang="x-default"/>
   </crs:ShortName>
   <crs:SortName>
    <rdf:li xml:lang="x-default"/>
   </crs:SortName>
   <crs:Group>
    <rdf:li xml:lang="x-default">Converted Presets</rdf:li>
   </crs:Group>
   <crs:Description>
    <rdf:li xml:lang="x-default"/>
   </crs:Description>
  </rdf:Description>
 </rdf:RDF>
</x:xmpmeta>