plugin/leica_restoration.xmp
<x:xmpmeta xmlns:x="adobe:ns:meta/" x:xmptk="Adobe XMP Core 7.0-c000">
 <rdf:RDF xmlns:rdf="http://w3.org">
  <rdf:Description rdf:about=""
    xmlns:crs="http://adobe.com"
   crs:Version="16.0"
   crs:ProcessVersion="15.4"
   crs:WhiteBalance="Custom"
   crs:Temperature="4600"
   crs:Tint="-42"
   crs:Exposure="+0.15"
   crs:Contrast="+25"
   crs:Highlights="-10"
   crs:Shadows="+15"
   crs:Whites="0"
   crs:Blacks="-12"
   crs:Clarity="+8"
   crs:Dehaze="+5"
   crs:Vibrance="-5"
   crs:Saturation="-8"
   crs:ParametricShadows="0"
   crs:ParametricDarks="-5"
   crs:ParametricLights="+5"
   crs:ParametricHighlights="0"
   crs:HueAdjustmentRed="+2"
   crs:HueAdjustmentOrange="-2"
   crs:HueAdjustmentYellow="+5"
   crs:SaturationAdjustmentRed="-15"
   crs:SaturationAdjustmentOrange="-18"
   crs:SaturationAdjustmentYellow="-10"
   crs:LuminanceAdjustmentRed="+10"
   crs:LuminanceAdjustmentOrange="+14"
   crs:LuminanceAdjustmentYellow="+8"
   crs:Sharpness="+40"
   crs:SharpenRadius="+1.0"
   crs:SharpenDetail="+25"
   crs:SharpenEdgeMasking="+10"
   crs:LuminanceSmoothing="+15"
   crs:ColorNoiseReduction="+25"
   crs:HasSettings="True">
  </rdf:Description>
 </rdf:RDF>
</x:xmpmeta>
