plugin/Leica_Modern_HDR.xmp
<x:xmpmeta xmlns:x="adobe:ns:meta/" x:xmptk="Adobe XMP Core 5.6-c140 79.160451, 2017/05/06-01:08:21        ">
 <rdf:RDF xmlns:rdf="http://w3.org">
  <rdf:Description rdf:about=""
    xmlns:crs="http://adobe.com"
   crs:PresetType="Normal"
   crs:Cluster=""
   crs:UUID="00000000-0000-0000-0000-000000000000"
   crs:SupportsAmount="False"
   crs:SupportsColor="True"
   crs:SupportsMonochrome="True"
   crs:SupportsHighDynamicRange="True"
   crs:SupportsNormalDynamicRange="True"
   crs:SupportsSceneReferred="True"
   crs:SupportsOutputReferred="True"
   crs:CameraModelRestriction=""
   crs:Copyright=""
   crs:ContactInfo=""
   crs:Version="10.3"
   crs:ProcessVersion="6.7"
   crs:s="{"
   crs:settings="{"
   crs:ProcessVersion="6.7"
   crs:CameraProfile="Camera Standard"
   crs:Exposure="0.30"
   crs:Highlights="-80"
   crs:Shadows="60"
   crs:Whites="15"
   crs:Blacks="-15"
   crs:Clarity="20"
   crs:Vibrance="10"
   crs:Saturation="-5"
   crs:HueAdjustmentRed="5"
   crs:HueAdjustmentOrange="-3"
   crs:HueAdjustmentYellow="-5"
   crs:HueAdjustmentBlue="-8"
   crs:SaturationAdjustmentRed="0"
   crs:SaturationAdjustmentOrange="5"
   crs:SaturationAdjustmentYellow="5"
   crs:SaturationAdjustmentGreen="-30"
   crs:SaturationAdjustmentAqua="-30"
   crs:SaturationAdjustmentBlue="10"
   crs:LuminanceAdjustmentOrange="10"
   crs:LuminanceAdjustmentYellow="10"
   crs:LuminanceAdjustmentBlue="-10"
   crs:EnableLensCorrections="True"
   crs:EnableColorDisconnect="True"
   crs:Sharpness="60"
   crs:SharpnessRadius="1.0"
   crs:SharpnessDetail="25"
   crs:SharpnessEdgeMasking="35"
   crs:ToneCurveName2012="Custom"
   crs:ToneCurvePV2012="{"
   crs:uuid="F6D5C7E1-8B3A-4F9A-9D2C-5B1E3F4A7C8D">
   <crs:Name>
    <rdf:Alt>
     <rdf:li xml:lang="x-default">Leica_Modern_HDR</rdf:li>
    </rdf:Alt>
   </crs:Name>
   <crs:ShortName>
    <rdf:li xml:lang="x-default"/>
   </crs:ShortName>
   <crs:SortName>
    <rdf:li xml:lang="x-default"/>
   </crs:SortName>
   <crs:Group>
    <rdf:li xml:lang="x-default">Converted Presets</rdf:li>
   </crs:Group>
   <crs:Description>
    <rdf:li xml:lang="x-default"/>
   </crs:Description>
  </rdf:Description>
 </rdf:RDF>
</x:xmpmeta>