plugin/Leica_HDR_Marsh.xmp
<x:xmpmeta xmlns:x="adobe:ns:meta/" x:xmptk="Adobe XMP Core 5.6-c140 79.160451, 2017/05/06-01:08:21        ">
 <rdf:RDF xmlns:rdf="http://w3.org">
  <rdf:Description rdf:about=""
    xmlns:crs="http://adobe.com"
   crs:PresetType="Normal"
   crs:Cluster=""
   crs:UUID="5EEEDF64-2610-4F81-8073-9564E89DE13D"
   crs:SupportsAmount="False"
   crs:SupportsColor="True"
   crs:SupportsMonochrome="True"
   crs:SupportsHighDynamicRange="True"
   crs:SupportsNormalDynamicRange="True"
   crs:SupportsSceneReferred="True"
   crs:SupportsOutputReferred="True"
   crs:CameraModelRestriction=""
   crs:Copyright=""
   crs:ContactInfo=""
   crs:Version="10.3"
   crs:ProcessVersion="6.7"
   crs:s="{"
   crs:settings="{"
   crs:Blacks2012="-20"
   crs:Highlights2012="-45"
   crs:HueAdjustmentBlue="-5"
   crs:HueAdjustmentOrange="-3"
   crs:HueAdjustmentYellow="-8"
   crs:LuminanceAdjustmentBlue="-10"
   crs:LuminanceAdjustmentOrange="-2"
   crs:ProcessVersion="15.4"
   crs:Saturation="-4"
   crs:SaturationAdjustmentYellow="-5"
   crs:SharpenDetail="25"
   crs:SharpenEdgeMasking="10"
   crs:SharpenRadius="1.0"
   crs:Sharpness="40"
   crs:SupportsAmount="True"
   crs:SupportsColor="True"
   crs:SupportsHighDynamicRange="True"
   crs:SupportsMonochrome="False"
   crs:ToneCurvePV2012Active="True"
   crs:Version="16.0"
   crs:uuid="5EEEDF64-2610-4F81-8073-9564E89DE13D">
   <crs:Name>
    <rdf:Alt>
     <rdf:li xml:lang="x-default">Leica_HDR_Marsh</rdf:li>
    </rdf:Alt>
   </crs:Name>
   <crs:ShortName>
    <rdf:li xml:lang="x-default"/>
   </crs:ShortName>
   <crs:SortName>
    <rdf:li xml:lang="x-default"/>
   </crs:SortName>
   <crs:Group>
    <rdf:li xml:lang="x-default">Converted Presets</rdf:li>
   </crs:Group>
   <crs:Description>
    <rdf:li xml:lang="x-default"/>
   </crs:Description>
  </rdf:Description>
 </rdf:RDF>
</x:xmpmeta>