plugin/moody_dark_golden_hour.xmp
<x:xmpmeta xmlns:x="adobe:ns:meta/" x:xmptk="Adobe XMP Core 5.6-c140 79.160451, 2017/05/06-01:08:21        ">
 <rdf:RDF xmlns:rdf="http://w3.org">
  <rdf:Description rdf:about=""
    xmlns:crs="http://adobe.com"
   crs:PresetType="Normal"
   crs:Cluster=""
   crs:UUID="93DDA094-86C9-4819-B177-B96E21DE9BEC"
   crs:SupportsAmount="False"
   crs:SupportsColor="True"
   crs:SupportsMonochrome="True"
   crs:SupportsHighDynamicRange="True"
   crs:SupportsNormalDynamicRange="True"
   crs:SupportsSceneReferred="True"
   crs:SupportsOutputReferred="True"
   crs:CameraModelRestriction=""
   crs:Copyright=""
   crs:ContactInfo=""
   crs:Version="10.3"
   crs:ProcessVersion="6.7"
   crs:s="{"
   crs:settings="{"
   crs:Blacks2012="-12"
   crs:Clarity2012="-5"
   crs:ColorGradingBalance="-20"
   crs:ColorGradingBlending="65"
   crs:ColorGradingHighlightsHue="42"
   crs:ColorGradingHighlightsSat="24"
   crs:ColorGradingMidtonesHue="35"
   crs:ColorGradingMidtonesSat="8"
   crs:ColorGradingShadowsHue="230"
   crs:ColorGradingShadowsSat="12"
   crs:ConvertToServerRGB="True"
   crs:Exposure2012="-0.65"
   crs:HasSettings="True"
   crs:Highlights2012="-18"
   crs:HueAdjustmentBlue="-10"
   crs:HueAdjustmentGreen="-45"
   crs:HueAdjustmentOrange="-8"
   crs:HueAdjustmentYellow="-35"
   crs:LuminanceAdjustmentAqua="-10"
   crs:LuminanceAdjustmentBlue="-20"
   crs:LuminanceAdjustmentGreen="-22"
   crs:LuminanceAdjustmentRed="-5"
   crs:PostCropVignetteAmount="-15"
   crs:PostCropVignetteFeather="85"
   crs:PostCropVignetteMidpoint="35"
   crs:PostCropVignetteStyle="1"
   crs:ProcessVersion="15.4"
   crs:Saturation="-8"
   crs:SaturationAdjustmentAqua="-30"
   crs:SaturationAdjustmentBlue="-25"
   crs:SaturationAdjustmentGreen="-45"
   crs:SaturationAdjustmentYellow="-15"
   crs:SplitTonerOn="True"
   crs:Version="16.0"
   crs:uuid="93DDA094-86C9-4819-B177-B96E21DE9BEC">
   <crs:Name>
    <rdf:Alt>
     <rdf:li xml:lang="x-default">moody_dark_golden_hour</rdf:li>
    </rdf:Alt>
   </crs:Name>
   <crs:ShortName>
    <rdf:li xml:lang="x-default"/>
   </crs:ShortName>
   <crs:SortName>
    <rdf:li xml:lang="x-default"/>
   </crs:SortName>
   <crs:Group>
    <rdf:li xml:lang="x-default">Converted Presets</rdf:li>
   </crs:Group>
   <crs:Description>
    <rdf:li xml:lang="x-default"/>
   </crs:Description>
  </rdf:Description>
 </rdf:RDF>
</x:xmpmeta>