plugin/Noctilux_Style_HighSpeed.xmp
<x:xmpmeta xmlns:x="adobe:ns:meta/" x:xmptk="Adobe XMP Core 5.6-c140 79.160451, 2017/05/06-01:08:21        ">
 <rdf:RDF xmlns:rdf="http://w3.org">
  <rdf:Description rdf:about=""
    xmlns:crs="http://adobe.com"
   crs:PresetType="Normal"
   crs:Cluster=""
   crs:UUID="00000000-0000-0000-0000-000000000000"
   crs:SupportsAmount="False"
   crs:SupportsColor="True"
   crs:SupportsMonochrome="True"
   crs:SupportsHighDynamicRange="True"
   crs:SupportsNormalDynamicRange="True"
   crs:SupportsSceneReferred="True"
   crs:SupportsOutputReferred="True"
   crs:CameraModelRestriction=""
   crs:Copyright=""
   crs:ContactInfo=""
   crs:Version="10.3"
   crs:ProcessVersion="6.7"
   crs:s="{"
   crs:settings="{"
   crs:Exposure2012="+0.20"
   crs:Contrast2012="-18"
   crs:Highlights2012="+15"
   crs:Shadows2012="+22"
   crs:Whites2012="-12"
   crs:Blacks2012="-8"
   crs:Clarity2012="-22"
   crs:Texture="-12"
   crs:Vibrance="+15"
   crs:Saturation="-4"
   crs:ToneCurveName2012="Custom"
   crs:ToneCurvePV2012="{"
   crs:HueAdjustmentRed="-2"
   crs:SaturationAdjustmentRed="+12"
   crs:LuminanceAdjustmentRed="-2"
   crs:HueAdjustmentOrange="-3"
   crs:SaturationAdjustmentOrange="+8"
   crs:LuminanceAdjustmentOrange="+4"
   crs:HueAdjustmentGreen="+8"
   crs:SaturationAdjustmentGreen="-25"
   crs:LuminanceAdjustmentGreen="+2"
   crs:HueAdjustmentBlue="+2"
   crs:SaturationAdjustmentBlue="-12"
   crs:LuminanceAdjustmentBlue="-6"
   crs:PostCropVignetteAmount="-48"
   crs:PostCropVignetteMidpoint="25"
   crs:PostCropVignetteRoundness="+25"
   crs:PostCropVignetteFeather="85"
   crs:PostCropVignetteStyle="1"
   crs:Sharpness="+25"
   crs:SharpenRadius="1.5"
   crs:SharpenDetail="10"
   crs:SharpenEdgeMasking="60"
   crs:uuid="9D3C5EF4-AF90-50E3-934C-9CF2CC6DA707">
   <crs:Name>
    <rdf:Alt>
     <rdf:li xml:lang="x-default">Noctilux_Style_HighSpeed</rdf:li>
    </rdf:Alt>
   </crs:Name>
   <crs:ShortName>
    <rdf:li xml:lang="x-default"/>
   </crs:ShortName>
   <crs:SortName>
    <rdf:li xml:lang="x-default"/>
   </crs:SortName>
   <crs:Group>
    <rdf:li xml:lang="x-default">Converted Presets</rdf:li>
   </crs:Group>
   <crs:Description>
    <rdf:li xml:lang="x-default"/>
   </crs:Description>
  </rdf:Description>
 </rdf:RDF>
</x:xmpmeta>