plugin/polaroid.xmp
<x:xmpmeta xmlns:x="adobe:ns:meta/" x:xmptk="Adobe XMP Core 7.0-c000 1.000000, 0000/00/00-00:00:00">
 <rdf:RDF xmlns:rdf="http://w3.org">
  <rdf:Description rdf:about=""
    xmlns:crs="http://adobe.com"
   crs:Version="16.0"
   crs:ProcessVersion="15.4"
   crs:Exposure2012="+0.35"
   crs:Contrast2012="-25"
   crs:Highlights2012="-40"
   crs:Shadows2012="+50"
   crs:Whites2012="-15"
   crs:Blacks2012="+30"
   crs:Texture="0"
   crs:Clarity="-15"
   crs:Dehaze="-10"
   crs:Vibrance="-10"
   crs:Saturation="-20"
   crs:ParametricShadows="0"
   crs:ParametricDarks="0"
   crs:ParametricLights="0"
   crs:ParametricHighlights="0"
   crs:Sharpness="25"
   crs:GrainAmount="45"
   crs:GrainSize="35"
   crs:GrainFrequency="50"
   crs:PostCropVignetteAmount="-20"
   crs:PostCropVignetteMidpoint="40"
   crs:PostCropVignetteFeather="80"
   crs:PostCropVignetteRoundness="0"
   crs:ShadowTint="+10"
   crs:RedHue="+5"
   crs:RedSaturation="-10"
   crs:GreenHue="-15"
   crs:GreenSaturation="-25"
   crs:BlueHue="+10"
   crs:BlueSaturation="-15"
   crs:SplitToningShadowHue="45"
   crs:SplitToningShadowSaturation="12"
   crs:SplitToningHighlightHue="210"
   crs:SplitToningHighlightSaturation="8"
   crs:SplitToningBalance="0"
   crs:HasSettings="True">
   <crs:ToneCurvePV2012>
    <rdf:Seq>
     <rdf:li>0, 35</rdf:li>
     <rdf:li>64, 70</rdf:li>
     <rdf:li>128, 130</rdf:li>
     <rdf:li>192, 195</rdf:li>
     <rdf:li>255, 235</rdf:li>
    </rdf:Seq>
   </crs:ToneCurvePV2012>
  </rdf:Description>
 </rdf:RDF>
</x:xmpmeta>
