plugin/Presetpro - Kodachrome 64_1.xmp
<x:xmpmeta xmlns:x="adobe:ns:meta/" x:xmptk="Adobe XMP Core 7.0-c000 1.000000, 0000/00/00-00:00:00        ">
 <rdf:RDF xmlns:rdf="http://www.w3.org/1999/02/22-rdf-syntax-ns#">
  <rdf:Description rdf:about=""
    xmlns:crs="http://ns.adobe.com/camera-raw-settings/1.0/"
   crs:PresetType="Normal"
   crs:Cluster="FREE"
   crs:UUID="E2E8480C44E84F3591D391D1E67E2805"
   crs:SupportsAmount2="True"
   crs:SupportsAmount="True"
   crs:SupportsColor="True"
   crs:SupportsMonochrome="True"
   crs:SupportsHighDynamicRange="True"
   crs:SupportsNormalDynamicRange="True"
   crs:SupportsSceneReferred="True"
   crs:SupportsOutputReferred="True"
   crs:RequiresRGBTables="False"
   crs:ShowInPresets="True"
   crs:ShowInQuickActions="False"
   crs:CameraModelRestriction=""
   crs:Copyright="Presetpro INC"
   crs:ContactInfo="Presetpro.com"
   crs:Version="18.3.2"
   crs:ProcessVersion="15.4"
   crs:Contrast2012="0"
   crs:Highlights2012="-36"
   crs:Shadows2012="+36"
   crs:Whites2012="-8"
   crs:Blacks2012="+27"
   crs:Texture="0"
   crs:Clarity2012="0"
   crs:Dehaze="0"
   crs:Vibrance="-8"
   crs:Saturation="-4"
   crs:ParametricShadows="-16"
   crs:ParametricDarks="0"
   crs:ParametricLights="+8"
   crs:ParametricHighlights="0"
   crs:ParametricShadowSplit="18"
   crs:ParametricMidtoneSplit="45"
   crs:ParametricHighlightSplit="75"
   crs:HueAdjustmentRed="+11"
   crs:HueAdjustmentOrange="+3"
   crs:HueAdjustmentYellow="-5"
   crs:HueAdjustmentGreen="+5"
   crs:HueAdjustmentAqua="0"
   crs:HueAdjustmentBlue="+2"
   crs:HueAdjustmentPurple="0"
   crs:HueAdjustmentMagenta="+2"
   crs:SaturationAdjustmentRed="-23"
   crs:SaturationAdjustmentOrange="+2"
   crs:SaturationAdjustmentYellow="-1"
   crs:SaturationAdjustmentGreen="-30"
   crs:SaturationAdjustmentAqua="-23"
   crs:SaturationAdjustmentBlue="+6"
   crs:SaturationAdjustmentPurple="-27"
   crs:SaturationAdjustmentMagenta="-27"
   crs:LuminanceAdjustmentRed="-22"
   crs:LuminanceAdjustmentOrange="-6"
   crs:LuminanceAdjustmentYellow="-14"
   crs:LuminanceAdjustmentGreen="-6"
   crs:LuminanceAdjustmentAqua="0"
   crs:LuminanceAdjustmentBlue="-13"
   crs:LuminanceAdjustmentPurple="0"
   crs:LuminanceAdjustmentMagenta="-14"
   crs:SplitToningShadowHue="0"
   crs:SplitToningShadowSaturation="0"
   crs:SplitToningHighlightHue="0"
   crs:SplitToningHighlightSaturation="0"
   crs:SplitToningBalance="0"
   crs:ColorGradeMidtoneHue="0"
   crs:ColorGradeMidtoneSat="0"
   crs:ColorGradeShadowLum="0"
   crs:ColorGradeMidtoneLum="0"
   crs:ColorGradeHighlightLum="0"
   crs:ColorGradeBlending="50"
   crs:ColorGradeGlobalHue="0"
   crs:ColorGradeGlobalSat="0"
   crs:ColorGradeGlobalLum="0"
   crs:GrainAmount="0"
   crs:PostCropVignetteAmount="0"
   crs:ShadowTint="0"
   crs:RedHue="+12"
   crs:RedSaturation="-3"
   crs:GreenHue="+25"
   crs:GreenSaturation="-18"
   crs:BlueHue="0"
   crs:BlueSaturation="0"
   crs:CurveRefineSaturation="100"
   crs:OverrideLookVignette="False"
   crs:ToneCurveName2012="Custom"
   crs:HasSettings="True">
   <crs:Name>
    <rdf:Alt>
     <rdf:li xml:lang="x-default">Presetpro - Kodachrome 64</rdf:li>
    </rdf:Alt>
   </crs:Name>
   <crs:ShortName>
    <rdf:Alt>
     <rdf:li xml:lang="x-default"/>
    </rdf:Alt>
   </crs:ShortName>
   <crs:SortName>
    <rdf:Alt>
     <rdf:li xml:lang="x-default"/>
    </rdf:Alt>
   </crs:SortName>
   <crs:Group>
    <rdf:Alt>
     <rdf:li xml:lang="x-default">Presetpro - Kodachrome 64</rdf:li>
    </rdf:Alt>
   </crs:Group>
   <crs:Description>
    <rdf:Alt>
     <rdf:li xml:lang="x-default"/>
    </rdf:Alt>
   </crs:Description>
   <crs:ToneCurvePV2012>
    <rdf:Seq>
     <rdf:li>0, 0</rdf:li>
     <rdf:li>17, 21</rdf:li>
     <rdf:li>79, 83</rdf:li>
     <rdf:li>124, 125</rdf:li>
     <rdf:li>255, 255</rdf:li>
    </rdf:Seq>
   </crs:ToneCurvePV2012>
   <crs:ToneCurvePV2012Red>
    <rdf:Seq>
     <rdf:li>0, 0</rdf:li>
     <rdf:li>26, 11</rdf:li>
     <rdf:li>54, 32</rdf:li>
     <rdf:li>113, 119</rdf:li>
     <rdf:li>147, 165</rdf:li>
     <rdf:li>183, 202</rdf:li>
     <rdf:li>255, 255</rdf:li>
    </rdf:Seq>
   </crs:ToneCurvePV2012Red>
   <crs:ToneCurvePV2012Green>
    <rdf:Seq>
     <rdf:li>0, 0</rdf:li>
     <rdf:li>25, 10</rdf:li>
     <rdf:li>50, 29</rdf:li>
     <rdf:li>112, 121</rdf:li>
     <rdf:li>188, 205</rdf:li>
     <rdf:li>255, 255</rdf:li>
    </rdf:Seq>
   </crs:ToneCurvePV2012Green>
   <crs:ToneCurvePV2012Blue>
    <rdf:Seq>
     <rdf:li>0, 0</rdf:li>
     <rdf:li>25, 10</rdf:li>
     <rdf:li>51, 30</rdf:li>
     <rdf:li>115, 121</rdf:li>
     <rdf:li>188, 203</rdf:li>
     <rdf:li>255, 255</rdf:li>
    </rdf:Seq>
   </crs:ToneCurvePV2012Blue>
   <crs:PointColors>
    <rdf:Seq>
     <rdf:li>-1.000000, -1.000000, -1.000000, -1.000000, -1.000000, -1.000000, -1.000000, -1.000000, -1.000000, -1.000000, -1.000000, -1.000000, -1.000000, -1.000000, -1.000000, -1.000000, -1.000000, -1.000000, -1.000000</rdf:li>
    </rdf:Seq>
   </crs:PointColors>
   <crs:ColorVariance>
    <rdf:Seq>
     <rdf:li>-50.000000</rdf:li>
    </rdf:Seq>
   </crs:ColorVariance>
   <crs:Look>
    <rdf:Description
     crs:Name="Presetpro - Kodachrome 64"
     crs:Amount="1"
     crs:Cluster="FREE"
     crs:UUID="4308F880BE204C82B365EE08FA065EEC"
     crs:Copyright="Presetpro INC"
     crs:ContactInfo="Presetpro.com"
     crs:Stubbed="true">
    <crs:Group>
     <rdf:Alt>
      <rdf:li xml:lang="x-default">Presetpro - Kodachrome 64</rdf:li>
     </rdf:Alt>
    </crs:Group>
    </rdf:Description>
   </crs:Look>
  </rdf:Description>
 </rdf:RDF>
</x:xmpmeta>
