plugin/Presetpro - Pastel Film.xmp
<x:xmpmeta xmlns:x="adobe:ns:meta/" x:xmptk="Adobe XMP Core 7.0-c000 1.000000, 0000/00/00-00:00:00        ">
 <rdf:RDF xmlns:rdf="http://www.w3.org/1999/02/22-rdf-syntax-ns#">
  <rdf:Description rdf:about=""
    xmlns:crs="http://ns.adobe.com/camera-raw-settings/1.0/"
   crs:PresetType="Normal"
   crs:Cluster="FREE"
   crs:UUID="FF0CE049E3DF4E57A85CB6915735C6BF"
   crs:SupportsAmount2="True"
   crs:SupportsAmount="True"
   crs:SupportsColor="True"
   crs:SupportsMonochrome="True"
   crs:SupportsHighDynamicRange="True"
   crs:SupportsNormalDynamicRange="True"
   crs:SupportsSceneReferred="True"
   crs:SupportsOutputReferred="True"
   crs:RequiresRGBTables="False"
   crs:ShowInPresets="True"
   crs:ShowInQuickActions="False"
   crs:CameraModelRestriction=""
   crs:Copyright="Presetpro INC"
   crs:ContactInfo="Presetpro.com"
   crs:Version="18.3.2"
   crs:ProcessVersion="15.4"
   crs:Contrast2012="0"
   crs:Highlights2012="-48"
   crs:Shadows2012="+32"
   crs:Whites2012="-18"
   crs:Blacks2012="+28"
   crs:Texture="0"
   crs:Clarity2012="-5"
   crs:Dehaze="0"
   crs:Vibrance="0"
   crs:Saturation="0"
   crs:ParametricShadows="+28"
   crs:ParametricDarks="+12"
   crs:ParametricLights="+10"
   crs:ParametricHighlights="+10"
   crs:ParametricShadowSplit="19"
   crs:ParametricMidtoneSplit="50"
   crs:ParametricHighlightSplit="75"
   crs:HueAdjustmentRed="+5"
   crs:HueAdjustmentOrange="+8"
   crs:HueAdjustmentYellow="-2"
   crs:HueAdjustmentGreen="+8"
   crs:HueAdjustmentAqua="+8"
   crs:HueAdjustmentBlue="0"
   crs:HueAdjustmentPurple="+18"
   crs:HueAdjustmentMagenta="+31"
   crs:SaturationAdjustmentRed="-18"
   crs:SaturationAdjustmentOrange="-20"
   crs:SaturationAdjustmentYellow="-20"
   crs:SaturationAdjustmentGreen="-35"
   crs:SaturationAdjustmentAqua="-39"
   crs:SaturationAdjustmentBlue="-31"
   crs:SaturationAdjustmentPurple="-47"
   crs:SaturationAdjustmentMagenta="-46"
   crs:LuminanceAdjustmentRed="+5"
   crs:LuminanceAdjustmentOrange="-2"
   crs:LuminanceAdjustmentYellow="+8"
   crs:LuminanceAdjustmentGreen="+2"
   crs:LuminanceAdjustmentAqua="-2"
   crs:LuminanceAdjustmentBlue="-27"
   crs:LuminanceAdjustmentPurple="-16"
   crs:LuminanceAdjustmentMagenta="+1"
   crs:SplitToningShadowHue="0"
   crs:SplitToningShadowSaturation="0"
   crs:SplitToningHighlightHue="0"
   crs:SplitToningHighlightSaturation="0"
   crs:SplitToningBalance="0"
   crs:ColorGradeMidtoneHue="0"
   crs:ColorGradeMidtoneSat="0"
   crs:ColorGradeShadowLum="0"
   crs:ColorGradeMidtoneLum="0"
   crs:ColorGradeHighlightLum="0"
   crs:ColorGradeBlending="50"
   crs:ColorGradeGlobalHue="0"
   crs:ColorGradeGlobalSat="0"
   crs:ColorGradeGlobalLum="0"
   crs:GrainAmount="22"
   crs:GrainSize="33"
   crs:GrainFrequency="34"
   crs:PostCropVignetteAmount="0"
   crs:ShadowTint="-5"
   crs:RedHue="+23"
   crs:RedSaturation="+38"
   crs:GreenHue="+40"
   crs:GreenSaturation="+5"
   crs:BlueHue="-22"
   crs:BlueSaturation="+6"
   crs:CurveRefineSaturation="100"
   crs:OverrideLookVignette="False"
   crs:ToneCurveName2012="Custom"
   crs:HasSettings="True">
   <crs:Name>
    <rdf:Alt>
     <rdf:li xml:lang="x-default">Presetpro - Pastel Film</rdf:li>
    </rdf:Alt>
   </crs:Name>
   <crs:ShortName>
    <rdf:Alt>
     <rdf:li xml:lang="x-default"/>
    </rdf:Alt>
   </crs:ShortName>
   <crs:SortName>
    <rdf:Alt>
     <rdf:li xml:lang="x-default"/>
    </rdf:Alt>
   </crs:SortName>
   <crs:Group>
    <rdf:Alt>
     <rdf:li xml:lang="x-default">Presetpro - Pastel Film</rdf:li>
    </rdf:Alt>
   </crs:Group>
   <crs:Description>
    <rdf:Alt>
     <rdf:li xml:lang="x-default"/>
    </rdf:Alt>
   </crs:Description>
   <crs:ToneCurvePV2012>
    <rdf:Seq>
     <rdf:li>0, 4</rdf:li>
     <rdf:li>59, 67</rdf:li>
     <rdf:li>188, 186</rdf:li>
     <rdf:li>255, 245</rdf:li>
    </rdf:Seq>
   </crs:ToneCurvePV2012>
   <crs:ToneCurvePV2012Red>
    <rdf:Seq>
     <rdf:li>0, 0</rdf:li>
     <rdf:li>42, 11</rdf:li>
     <rdf:li>77, 45</rdf:li>
     <rdf:li>122, 122</rdf:li>
     <rdf:li>179, 202</rdf:li>
     <rdf:li>255, 255</rdf:li>
    </rdf:Seq>
   </crs:ToneCurvePV2012Red>
   <crs:ToneCurvePV2012Green>
    <rdf:Seq>
     <rdf:li>0, 0</rdf:li>
     <rdf:li>39, 13</rdf:li>
     <rdf:li>78, 47</rdf:li>
     <rdf:li>122, 124</rdf:li>
     <rdf:li>178, 197</rdf:li>
     <rdf:li>219, 230</rdf:li>
     <rdf:li>255, 255</rdf:li>
    </rdf:Seq>
   </crs:ToneCurvePV2012Green>
   <crs:ToneCurvePV2012Blue>
    <rdf:Seq>
     <rdf:li>0, 0</rdf:li>
     <rdf:li>36, 12</rdf:li>
     <rdf:li>77, 47</rdf:li>
     <rdf:li>121, 118</rdf:li>
     <rdf:li>163, 182</rdf:li>
     <rdf:li>181, 202</rdf:li>
     <rdf:li>222, 235</rdf:li>
     <rdf:li>255, 255</rdf:li>
    </rdf:Seq>
   </crs:ToneCurvePV2012Blue>
   <crs:PointColors>
    <rdf:Seq>
     <rdf:li>-1.000000, -1.000000, -1.000000, -1.000000, -1.000000, -1.000000, -1.000000, -1.000000, -1.000000, -1.000000, -1.000000, -1.000000, -1.000000, -1.000000, -1.000000, -1.000000, -1.000000, -1.000000, -1.000000</rdf:li>
    </rdf:Seq>
   </crs:PointColors>
   <crs:ColorVariance>
    <rdf:Seq>
     <rdf:li>-50.000000</rdf:li>
    </rdf:Seq>
   </crs:ColorVariance>
   <crs:Look>
    <rdf:Description
     crs:Name="Presetpro - Pastel Film"
     crs:Amount="1"
     crs:Cluster="FREE"
     crs:UUID="92D2D818AED7442DB0C46ADAFBE83FF7"
     crs:Copyright="Presetpro INC"
     crs:ContactInfo="Presetpro.com"
     crs:Stubbed="true">
    <crs:Group>
     <rdf:Alt>
      <rdf:li xml:lang="x-default">Presetpro - Pastel Film</rdf:li>
     </rdf:Alt>
    </crs:Group>
    </rdf:Description>
   </crs:Look>
  </rdf:Description>
 </rdf:RDF>
</x:xmpmeta>
