plugin/Soviet_Helios_44_2_Swirl.xmp
<x:xmpmeta xmlns:x="adobe:ns:meta/" x:xmptk="Adobe XMP Core 5.6-c140 79.160451, 2017/05/06-01:08:21        ">
 <rdf:RDF xmlns:rdf="http://w3.org">
  <rdf:Description rdf:about=""
    xmlns:crs="http://adobe.com"
   crs:PresetType="Normal"
   crs:Cluster=""
   crs:UUID="00000000-0000-0000-0000-000000000000"
   crs:SupportsAmount="False"
   crs:SupportsColor="True"
   crs:SupportsMonochrome="True"
   crs:SupportsHighDynamicRange="True"
   crs:SupportsNormalDynamicRange="True"
   crs:SupportsSceneReferred="True"
   crs:SupportsOutputReferred="True"
   crs:CameraModelRestriction=""
   crs:Copyright=""
   crs:ContactInfo=""
   crs:Version="10.3"
   crs:ProcessVersion="6.7"
   crs:s="{"
   crs:settings="{"
   crs:Exposure2012="+0.16"
   crs:Contrast2012="-14"
   crs:Highlights2012="+12"
   crs:Shadows2012="+18"
   crs:Whites2012="-8"
   crs:Blacks2012="-5"
   crs:Clarity2012="-15"
   crs:Texture="-6"
   crs:Vibrance="+10"
   crs:Saturation="-5"
   crs:Temperature="+4"
   crs:Tint="+2"
   crs:ToneCurveName2012="Custom"
   crs:ToneCurvePV2012="{"
   crs:HueAdjustmentRed="-2"
   crs:SaturationAdjustmentRed="+12"
   crs:LuminanceAdjustmentRed="-2"
   crs:HueAdjustmentOrange="-2"
   crs:SaturationAdjustmentOrange="+6"
   crs:LuminanceAdjustmentOrange="+2"
   crs:HueAdjustmentGreen="+6"
   crs:SaturationAdjustmentGreen="-20"
   crs:LuminanceAdjustmentGreen="+2"
   crs:HueAdjustmentBlue="-4"
   crs:SaturationAdjustmentBlue="-14"
   crs:LuminanceAdjustmentBlue="-4"
   crs:PostCropVignetteAmount="-45"
   crs:PostCropVignetteMidpoint="26"
   crs:PostCropVignetteRoundness="+35"
   crs:PostCropVignetteFeather="80"
   crs:PostCropVignetteStyle="1"
   crs:Sharpness="+30"
   crs:SharpenRadius="1.3"
   crs:SharpenDetail="15"
   crs:SharpenEdgeMasking="55"
   crs:uuid="D5E6F7A8-B9C0-53E4-A2B3-C4D5E6F7A8F3">
   <crs:Name>
    <rdf:Alt>
     <rdf:li xml:lang="x-default">Soviet_Helios_44_2_Swirl</rdf:li>
    </rdf:Alt>
   </crs:Name>
   <crs:ShortName>
    <rdf:li xml:lang="x-default"/>
   </crs:ShortName>
   <crs:SortName>
    <rdf:li xml:lang="x-default"/>
   </crs:SortName>
   <crs:Group>
    <rdf:li xml:lang="x-default">Converted Presets</rdf:li>
   </crs:Group>
   <crs:Description>
    <rdf:li xml:lang="x-default"/>
   </crs:Description>
  </rdf:Description>
 </rdf:RDF>
</x:xmpmeta>