plugin/Technicolor Three Strip.xmp
<x:xmpmeta xmlns:x="adobe:ns:meta/" x:xmptk="Adobe XMP Core 5.6-c140 79.160451, 2017/05/06-01:08:21        ">
 <rdf:RDF xmlns:rdf="http://w3.org">
  <rdf:Description rdf:about=""
    xmlns:crs="http://adobe.com"
   crs:PresetType="Normal"
   crs:Cluster=""
   crs:UUID="00000000-0000-0000-0000-000000000000"
   crs:SupportsAmount="False"
   crs:SupportsColor="True"
   crs:SupportsMonochrome="True"
   crs:SupportsHighDynamicRange="True"
   crs:SupportsNormalDynamicRange="True"
   crs:SupportsSceneReferred="True"
   crs:SupportsOutputReferred="True"
   crs:CameraModelRestriction=""
   crs:Copyright=""
   crs:ContactInfo=""
   crs:Version="10.3"
   crs:ProcessVersion="6.7"
   crs:s="{"
   crs:settings="{"
   crs:Exposure="0.0"
   crs:Contrast="28"
   crs:Highlights="10"
   crs:Shadows="-14"
   crs:Blacks="-10"
   crs:Clarity="12"
   crs:Vibrance="20"
   crs:Saturation="12"
   crs:Temperature="5"
   crs:Tint="4"
   crs:ToneCurveName2012="Custom"
   crs:ToneCurvePV2012="{"
   crs:HueAdjustmentRed="4"
   crs:SaturationAdjustmentRed="35"
   crs:LuminanceAdjustmentRed="-6"
   crs:HueAdjustmentOrange="2"
   crs:SaturationAdjustmentOrange="12"
   crs:HueAdjustmentGreen="8"
   crs:SaturationAdjustmentGreen="30"
   crs:LuminanceAdjustmentGreen="-4"
   crs:HueAdjustmentBlue="-4"
   crs:SaturationAdjustmentBlue="28"
   crs:LuminanceAdjustmentBlue="-8"
   crs:GrainAmount="0"
   crs:uuid="82283714-DF7B-452C-AEB9-1D9B2EE5620E">
   <crs:Name>
    <rdf:Alt>
     <rdf:li xml:lang="x-default">Technicolor Three Strip</rdf:li>
    </rdf:Alt>
   </crs:Name>
   <crs:ShortName>
    <rdf:li xml:lang="x-default"/>
   </crs:ShortName>
   <crs:SortName>
    <rdf:li xml:lang="x-default"/>
   </crs:SortName>
   <crs:Group>
    <rdf:li xml:lang="x-default">Converted Presets</rdf:li>
   </crs:Group>
   <crs:Description>
    <rdf:li xml:lang="x-default"/>
   </crs:Description>
  </rdf:Description>
 </rdf:RDF>
</x:xmpmeta>