plugin/Vintage_Zeiss_Sonnar_1930s.xmp
<x:xmpmeta xmlns:x="adobe:ns:meta/" x:xmptk="Adobe XMP Core 5.6-c140 79.160451, 2017/05/06-01:08:21        ">
 <rdf:RDF xmlns:rdf="http://w3.org">
  <rdf:Description rdf:about=""
    xmlns:crs="http://adobe.com"
   crs:PresetType="Normal"
   crs:Cluster=""
   crs:UUID="00000000-0000-0000-0000-000000000000"
   crs:SupportsAmount="False"
   crs:SupportsColor="True"
   crs:SupportsMonochrome="True"
   crs:SupportsHighDynamicRange="True"
   crs:SupportsNormalDynamicRange="True"
   crs:SupportsSceneReferred="True"
   crs:SupportsOutputReferred="True"
   crs:CameraModelRestriction=""
   crs:Copyright=""
   crs:ContactInfo=""
   crs:Version="10.3"
   crs:ProcessVersion="6.7"
   crs:s="{"
   crs:settings="{"
   crs:Exposure2012="+0.18"
   crs:Contrast2012="-16"
   crs:Highlights2012="+8"
   crs:Shadows2012="+20"
   crs:Whites2012="-12"
   crs:Blacks2012="+4"
   crs:Clarity2012="-18"
   crs:Texture="-10"
   crs:Vibrance="+10"
   crs:Saturation="-8"
   crs:Temperature="+4"
   crs:Tint="+3"
   crs:ToneCurveName2012="Custom"
   crs:ToneCurvePV2012="{"
   crs:HueAdjustmentRed="-2"
   crs:SaturationAdjustmentRed="+10"
   crs:LuminanceAdjustmentRed="-2"
   crs:HueAdjustmentOrange="-3"
   crs:SaturationAdjustmentOrange="+4"
   crs:LuminanceAdjustmentOrange="+4"
   crs:HueAdjustmentGreen="+6"
   crs:SaturationAdjustmentGreen="-26"
   crs:LuminanceAdjustmentGreen="+3"
   crs:HueAdjustmentBlue="+4"
   crs:SaturationAdjustmentBlue="-18"
   crs:LuminanceAdjustmentBlue="-4"
   crs:PostCropVignetteAmount="-38"
   crs:PostCropVignetteMidpoint="33"
   crs:PostCropVignetteRoundness="+15"
   crs:PostCropVignetteFeather="80"
   crs:PostCropVignetteStyle="1"
   crs:Sharpness="30"
   crs:SharpenRadius="1.3"
   crs:SharpenDetail="15"
   crs:SharpenEdgeMasking="50"
   crs:uuid="B3C4D5E6-F7A8-51E2-B3C4-D5E6F7A8B9D1">
   <crs:Name>
    <rdf:Alt>
     <rdf:li xml:lang="x-default">Vintage_Zeiss_Sonnar_1930s</rdf:li>
    </rdf:Alt>
   </crs:Name>
   <crs:ShortName>
    <rdf:li xml:lang="x-default"/>
   </crs:ShortName>
   <crs:SortName>
    <rdf:li xml:lang="x-default"/>
   </crs:SortName>
   <crs:Group>
    <rdf:li xml:lang="x-default">Converted Presets</rdf:li>
   </crs:Group>
   <crs:Description>
    <rdf:li xml:lang="x-default"/>
   </crs:Description>
  </rdf:Description>
 </rdf:RDF>
</x:xmpmeta>