dist/PhotoLab/_internal/plugin/architectural_high_contrast.xmp
<x:xmpmeta xmlns:x="adobe:ns:meta/" x:xmptk="Adobe XMP Core 5.6-c140 79.160451, 2017/05/06-01:08:21        ">
 <rdf:RDF xmlns:rdf="http://w3.org">
  <rdf:Description rdf:about=""
    xmlns:crs="http://adobe.com"
   crs:PresetType="Normal"
   crs:Cluster=""
   crs:UUID="0BE704A3-0873-495E-A627-0ED3892584BC"
   crs:SupportsAmount="False"
   crs:SupportsColor="True"
   crs:SupportsMonochrome="True"
   crs:SupportsHighDynamicRange="True"
   crs:SupportsNormalDynamicRange="True"
   crs:SupportsSceneReferred="True"
   crs:SupportsOutputReferred="True"
   crs:CameraModelRestriction=""
   crs:Copyright=""
   crs:ContactInfo=""
   crs:Version="10.3"
   crs:ProcessVersion="6.7"
   crs:s="{"
   crs:settings="{"
   crs:BlackAndWhiteAqua="-40"
   crs:BlackAndWhiteBlue="-75"
   crs:BlackAndWhiteGreen="-20"
   crs:BlackAndWhiteMagenta="-15"
   crs:BlackAndWhitePurple="-40"
   crs:BlackAndWhiteRed="-5"
   crs:Blacks2012="-25"
   crs:ConvertToServerRGB="False"
   crs:Exposure2012="-0.1"
   crs:GrainAmount="0"
   crs:HasSettings="True"
   crs:ProcessVersion="15.4"
   crs:Shadows2012="-30"
   crs:Version="16.0"
   crs:uuid="0BE704A3-0873-495E-A627-0ED3892584BC">
   <crs:Name>
    <rdf:Alt>
     <rdf:li xml:lang="x-default">architectural_high_contrast</rdf:li>
    </rdf:Alt>
   </crs:Name>
   <crs:ShortName>
    <rdf:li xml:lang="x-default"/>
   </crs:ShortName>
   <crs:SortName>
    <rdf:li xml:lang="x-default"/>
   </crs:SortName>
   <crs:Group>
    <rdf:li xml:lang="x-default">Converted Presets</rdf:li>
   </crs:Group>
   <crs:Description>
    <rdf:li xml:lang="x-default"/>
   </crs:Description>
  </rdf:Description>
 </rdf:RDF>
</x:xmpmeta>