dist/PhotoLab/_internal/plugin/B&W HDR-3.xmp
<x:xmpmeta xmlns:x="adobe:ns:meta/" x:xmptk="Adobe XMP Core 5.6-c140 79.160451, 2017/05/06-01:08:21        ">
 <rdf:RDF xmlns:rdf="http://w3.org">
  <rdf:Description rdf:about=""
    xmlns:crs="http://adobe.com"
   crs:PresetType="Normal"
   crs:Cluster=""
   crs:UUID="BFEC427D-F200-44AB-8A84-5918EE4D1CAC"
   crs:SupportsAmount="False"
   crs:SupportsColor="True"
   crs:SupportsMonochrome="True"
   crs:SupportsHighDynamicRange="True"
   crs:SupportsNormalDynamicRange="True"
   crs:SupportsSceneReferred="True"
   crs:SupportsOutputReferred="True"
   crs:CameraModelRestriction=""
   crs:Copyright=""
   crs:ContactInfo=""
   crs:Version="10.3"
   crs:ProcessVersion="6.7"
   crs:s="{"
   crs:settings="{"
   crs:AutoLateralCA="0"
   crs:Blacks2012="-38"
   crs:BlueHue="0"
   crs:BlueSaturation="0"
   crs:CameraProfile="Embedded"
   crs:ChromaticAberrationB="0"
   crs:ChromaticAberrationR="0"
   crs:Clarity2012="79"
   crs:ColorNoiseReduction="0"
   crs:ColorNoiseReductionDetail="50"
   crs:ColorNoiseReductionSmoothness="50"
   crs:Contrast2012="24"
   crs:ConvertToGrayscale="True"
   crs:Defringe="0"
   crs:DefringeGreenAmount="0"
   crs:DefringeGreenHueHi="60"
   crs:DefringeGreenHueLo="40"
   crs:DefringePurpleAmount="0"
   crs:DefringePurpleHueHi="70"
   crs:DefringePurpleHueLo="30"
   crs:EnableCalibration="True"
   crs:EnableDetail="True"
   crs:EnableEffects="True"
   crs:EnableGrayscaleMix="True"
   crs:EnableLensCorrections="True"
   crs:EnableSplitToning="True"
   crs:Exposure2012="0"
   crs:GrainAmount="0"
   crs:GrainFrequency="50"
   crs:GrainSize="25"
   crs:GrayMixerAqua="-18"
   crs:GrayMixerBlue="8"
   crs:GrayMixerGreen="-25"
   crs:GrayMixerMagenta="3"
   crs:GrayMixerOrange="-17"
   crs:GrayMixerPurple="14"
   crs:GrayMixerRed="-9"
   crs:GrayMixerYellow="-21"
   crs:GreenHue="0"
   crs:GreenSaturation="0"
   crs:Highlights2012="-33"
   crs:LuminanceNoiseReductionContrast="0"
   crs:LuminanceNoiseReductionDetail="50"
   crs:LuminanceSmoothing="7"
   crs:ParametricDarks="0"
   crs:ParametricHighlightSplit="75"
   crs:ParametricHighlights="0"
   crs:ParametricLights="0"
   crs:ParametricMidtoneSplit="50"
   crs:ParametricShadowSplit="25"
   crs:ParametricShadows="0"
   crs:PostCropVignetteAmount="-2"
   crs:PostCropVignetteFeather="50"
   crs:PostCropVignetteHighlightContrast="0"
   crs:PostCropVignetteMidpoint="50"
   crs:PostCropVignetteRoundness="0"
   crs:PostCropVignetteStyle="1"
   crs:ProcessVersion="6.7"
   crs:RedHue="0"
   crs:RedSaturation="0"
   crs:ShadowTint="0"
   crs:Shadows2012="33"
   crs:SharpenDetail="25"
   crs:SharpenEdgeMasking="0"
   crs:SharpenRadius="1"
   crs:Sharpness="29"
   crs:SplitToningBalance="0"
   crs:SplitToningHighlightHue="0"
   crs:SplitToningHighlightSaturation="0"
   crs:SplitToningShadowHue="0"
   crs:SplitToningShadowSaturation="0"
   crs:ToneCurveName2012="Custom"
   crs:ToneCurvePV2012="{"
   crs:ToneCurvePV2012Blue="{"
   crs:ToneCurvePV2012Green="{"
   crs:ToneCurvePV2012Red="{"
   crs:VignetteAmount="0"
   crs:VignetteMidpoint="50"
   crs:WhiteBalance="As Shot"
   crs:Whites2012="19"
   crs:uuid="96BC31BE-D42C-4964-8290-90C44BE15FE4">
   <crs:Name>
    <rdf:Alt>
     <rdf:li xml:lang="x-default">B&W HDR-3</rdf:li>
    </rdf:Alt>
   </crs:Name>
   <crs:ShortName>
    <rdf:li xml:lang="x-default"/>
   </crs:ShortName>
   <crs:SortName>
    <rdf:li xml:lang="x-default"/>
   </crs:SortName>
   <crs:Group>
    <rdf:li xml:lang="x-default">Converted Presets</rdf:li>
   </crs:Group>
   <crs:Description>
    <rdf:li xml:lang="x-default"/>
   </crs:Description>
  </rdf:Description>
 </rdf:RDF>
</x:xmpmeta>