dist/PhotoLab/_internal/plugin/Contrastly - Infrared Sims - IR Sim Color Green Priority.xmp
<x:xmpmeta xmlns:x="adobe:ns:meta/" x:xmptk="Adobe XMP Core 5.6-c140 79.160451, 2017/05/06-01:08:21        ">
 <rdf:RDF xmlns:rdf="http://w3.org">
  <rdf:Description rdf:about=""
    xmlns:crs="http://adobe.com"
   crs:PresetType="Normal"
   crs:Cluster=""
   crs:UUID="40D7CB60-348B-4E83-8869-29AA9923DD1D"
   crs:SupportsAmount="False"
   crs:SupportsColor="True"
   crs:SupportsMonochrome="True"
   crs:SupportsHighDynamicRange="True"
   crs:SupportsNormalDynamicRange="True"
   crs:SupportsSceneReferred="True"
   crs:SupportsOutputReferred="True"
   crs:CameraModelRestriction=""
   crs:Copyright=""
   crs:ContactInfo=""
   crs:Version="10.3"
   crs:ProcessVersion="6.7"
   crs:s="{"
   crs:settings="{"
   crs:AutoLateralCA="0"
   crs:Blacks2012="60"
   crs:BlueHue="0"
   crs:BlueSaturation="0"
   crs:CameraProfile="Adobe Standard"
   crs:ChromaticAberrationB="0"
   crs:ChromaticAberrationR="0"
   crs:Clarity2012="60"
   crs:ColorNoiseReduction="100"
   crs:ColorNoiseReductionDetail="50"
   crs:ColorNoiseReductionSmoothness="50"
   crs:Contrast2012="-10"
   crs:ConvertToGrayscale="False"
   crs:CropConstrainToWarp="0"
   crs:Defringe="0"
   crs:DefringeGreenAmount="0"
   crs:DefringeGreenHueHi="60"
   crs:DefringeGreenHueLo="40"
   crs:DefringePurpleAmount="0"
   crs:DefringePurpleHueHi="70"
   crs:DefringePurpleHueLo="30"
   crs:EnableCalibration="True"
   crs:EnableCircularGradientBasedCorrections="True"
   crs:EnableColorAdjustments="True"
   crs:EnableDetail="True"
   crs:EnableEffects="True"
   crs:EnableGradientBasedCorrections="True"
   crs:EnableLensCorrections="True"
   crs:EnableSplitToning="True"
   crs:Exposure2012="0.1"
   crs:GradientBasedCorrections="{"
   crs:CorrectionActive="True"
   crs:CorrectionAmount="1"
   crs:CorrectionID="7D3CCDA7-1ABB-481A-AE36-F087328A1698"
   crs:CorrectionMasks="{"
   crs:FullX="0.492078"
   crs:FullY="-0.061088"
   crs:MaskID="27B19A67-7EAF-4CBD-8A66-4EB993F8E1F2"
   crs:MaskValue="1"
   crs:What="Correction"
   crs:ZeroX="0.494624"
   crs:ZeroY="0.999999"
   crs:CorrectionReferenceX="0.493351"
   crs:CorrectionReferenceY="0.469455"
   crs:LocalBrightness="0"
   crs:LocalClarity="0"
   crs:LocalClarity2012="0.74524"
   crs:LocalContrast="0"
   crs:LocalContrast2012="0.39524"
   crs:LocalDefringe="0"
   crs:LocalExposure="0"
   crs:LocalExposure2012="0"
   crs:LocalHighlights2012="-0.79952"
   crs:LocalLuminanceNoise="0.25429"
   crs:LocalMoire="0"
   crs:LocalSaturation="0.29571"
   crs:LocalShadows2012="-0.3"
   crs:LocalSharpness="0"
   crs:LocalTemperature="0"
   crs:LocalTint="0"
   crs:LocalToningHue="240"
   crs:LocalToningSaturation="0"
   crs:GrainAmount="0"
   crs:GrainFrequency="50"
   crs:GrainSize="25"
   crs:GreenHue="0"
   crs:GreenSaturation="0"
   crs:Highlights2012="-55"
   crs:HueAdjustmentAqua="0"
   crs:HueAdjustmentBlue="0"
   crs:HueAdjustmentGreen="0"
   crs:HueAdjustmentMagenta="0"
   crs:HueAdjustmentOrange="0"
   crs:HueAdjustmentPurple="0"
   crs:HueAdjustmentRed="0"
   crs:HueAdjustmentYellow="0"
   crs:LensManualDistortionAmount="0"
   crs:LensProfileEnable="0"
   crs:LensProfileSetup="LensDefaults"
   crs:LuminanceAdjustmentAqua="-100"
   crs:LuminanceAdjustmentBlue="-100"
   crs:LuminanceAdjustmentGreen="50"
   crs:LuminanceAdjustmentMagenta="0"
   crs:LuminanceAdjustmentOrange="0"
   crs:LuminanceAdjustmentPurple="0"
   crs:LuminanceAdjustmentRed="0"
   crs:LuminanceAdjustmentYellow="50"
   crs:LuminanceNoiseReductionContrast="0"
   crs:LuminanceNoiseReductionDetail="50"
   crs:LuminanceSmoothing="10"
   crs:ParametricDarks="0"
   crs:ParametricHighlightSplit="75"
   crs:ParametricHighlights="0"
   crs:ParametricLights="0"
   crs:ParametricMidtoneSplit="50"
   crs:ParametricShadowSplit="25"
   crs:ParametricShadows="0"
   crs:PerspectiveAspect="0"
   crs:PerspectiveHorizontal="0"
   crs:PerspectiveRotate="0"
   crs:PerspectiveScale="100"
   crs:PerspectiveUpright="0"
   crs:PerspectiveVertical="0"
   crs:PostCropVignetteAmount="0"
   crs:PostCropVignetteFeather="50"
   crs:PostCropVignetteHighlightContrast="0"
   crs:PostCropVignetteMidpoint="50"
   crs:PostCropVignetteRoundness="0"
   crs:PostCropVignetteStyle="1"
   crs:ProcessVersion="6.7"
   crs:RedHue="0"
   crs:RedSaturation="0"
   crs:Saturation="80"
   crs:SaturationAdjustmentAqua="-80"
   crs:SaturationAdjustmentBlue="-80"
   crs:SaturationAdjustmentGreen="0"
   crs:SaturationAdjustmentMagenta="0"
   crs:SaturationAdjustmentOrange="0"
   crs:SaturationAdjustmentPurple="-100"
   crs:SaturationAdjustmentRed="0"
   crs:SaturationAdjustmentYellow="0"
   crs:ShadowTint="0"
   crs:Shadows2012="60"
   crs:SharpenDetail="25"
   crs:SharpenEdgeMasking="0"
   crs:SharpenRadius="1"
   crs:Sharpness="0"
   crs:SplitToningBalance="0"
   crs:SplitToningHighlightHue="0"
   crs:SplitToningHighlightSaturation="0"
   crs:SplitToningShadowHue="0"
   crs:SplitToningShadowSaturation="0"
   crs:ToneCurveName2012="Custom"
   crs:ToneCurvePV2012="{"
   crs:ToneCurvePV2012Blue="{"
   crs:ToneCurvePV2012Green="{"
   crs:ToneCurvePV2012Red="{"
   crs:Vibrance="60"
   crs:VignetteAmount="0"
   crs:VignetteMidpoint="50"
   crs:WhiteBalance="As Shot"
   crs:Whites2012="40"
   crs:orientation="AB"
   crs:uuid="72F12AFB-5FF3-4FAE-B9F0-41DBC9186F94">
   <crs:Name>
    <rdf:Alt>
     <rdf:li xml:lang="x-default">Contrastly - Infrared Sims - IR Sim Color Green Priority</rdf:li>
    </rdf:Alt>
   </crs:Name>
   <crs:ShortName>
    <rdf:li xml:lang="x-default"/>
   </crs:ShortName>
   <crs:SortName>
    <rdf:li xml:lang="x-default"/>
   </crs:SortName>
   <crs:Group>
    <rdf:li xml:lang="x-default">Converted Presets</rdf:li>
   </crs:Group>
   <crs:Description>
    <rdf:li xml:lang="x-default"/>
   </crs:Description>
  </rdf:Description>
 </rdf:RDF>
</x:xmpmeta>