dist/PhotoLab/_internal/plugin/Contrastly - Portrait Retouch Vol 2 - Portraits 2.xmp
<x:xmpmeta xmlns:x="adobe:ns:meta/" x:xmptk="Adobe XMP Core 5.6-c140 79.160451, 2017/05/06-01:08:21        ">
 <rdf:RDF xmlns:rdf="http://w3.org">
  <rdf:Description rdf:about=""
    xmlns:crs="http://adobe.com"
   crs:PresetType="Normal"
   crs:Cluster=""
   crs:UUID="87BA1622-7351-4E69-A54C-CBC90BA8E22A"
   crs:SupportsAmount="False"
   crs:SupportsColor="True"
   crs:SupportsMonochrome="True"
   crs:SupportsHighDynamicRange="True"
   crs:SupportsNormalDynamicRange="True"
   crs:SupportsSceneReferred="True"
   crs:SupportsOutputReferred="True"
   crs:CameraModelRestriction=""
   crs:Copyright=""
   crs:ContactInfo=""
   crs:Version="10.3"
   crs:ProcessVersion="6.7"
   crs:s="{"
   crs:settings="{"
   crs:AutoLateralCA="0"
   crs:Blacks2012="0"
   crs:BlueHue="0"
   crs:BlueSaturation="0"
   crs:CameraProfile="Adobe Standard"
   crs:ChromaticAberrationB="0"
   crs:ChromaticAberrationR="0"
   crs:CircularGradientBasedCorrections="{"
   crs:CorrectionActive="True"
   crs:CorrectionAmount="1"
   crs:CorrectionID="44F19A13-3D02-4E29-8E01-F06A243EF6F5"
   crs:CorrectionMasks="{"
   crs:Angle="0"
   crs:Bottom="1.12882"
   crs:Feather="100"
   crs:Flipped="True"
   crs:Left="0.143617"
   crs:MaskID="653829B9-C7FC-4858-8EF8-A46C84EC170F"
   crs:MaskValue="1"
   crs:Midpoint="50"
   crs:Right="0.859929"
   crs:Roundness="0"
   crs:Top="-0.201859"
   crs:Version="2"
   crs:What="Correction"
   crs:CorrectionReferenceX="0.501773"
   crs:CorrectionReferenceY="0.46348"
   crs:LocalBlacks2012="0"
   crs:LocalBrightness="0"
   crs:LocalClarity="0"
   crs:LocalClarity2012="0.59684"
   crs:LocalContrast="0"
   crs:LocalContrast2012="0"
   crs:LocalDefringe="0"
   crs:LocalExposure="0"
   crs:LocalExposure2012="0.23075"
   crs:LocalHighlights2012="0"
   crs:LocalLuminanceNoise="0"
   crs:LocalMoire="0"
   crs:LocalSaturation="0"
   crs:LocalShadows2012="0"
   crs:LocalSharpness="0"
   crs:LocalTemperature="0"
   crs:LocalTint="0"
   crs:LocalToningHue="72"
   crs:LocalToningSaturation="0"
   crs:LocalWhites2012="0.3959"
   crs:Clarity2012="40"
   crs:ColorNoiseReduction="25"
   crs:ColorNoiseReductionDetail="50"
   crs:ColorNoiseReductionSmoothness="50"
   crs:Contrast2012="-70"
   crs:ConvertToGrayscale="False"
   crs:CropConstrainToWarp="0"
   crs:Defringe="0"
   crs:DefringeGreenAmount="0"
   crs:DefringeGreenHueHi="60"
   crs:DefringeGreenHueLo="40"
   crs:DefringePurpleAmount="0"
   crs:DefringePurpleHueHi="70"
   crs:DefringePurpleHueLo="30"
   crs:Dehaze="0"
   crs:EnableCalibration="True"
   crs:EnableCircularGradientBasedCorrections="True"
   crs:EnableColorAdjustments="True"
   crs:EnableDetail="True"
   crs:EnableEffects="True"
   crs:EnableGradientBasedCorrections="True"
   crs:EnableLensCorrections="True"
   crs:EnableSplitToning="True"
   crs:Exposure2012="0"
   crs:GrainAmount="21"
   crs:GrainFrequency="50"
   crs:GrainSize="68"
   crs:GreenHue="0"
   crs:GreenSaturation="0"
   crs:Highlights2012="0"
   crs:HueAdjustmentAqua="0"
   crs:HueAdjustmentBlue="0"
   crs:HueAdjustmentGreen="0"
   crs:HueAdjustmentMagenta="0"
   crs:HueAdjustmentOrange="0"
   crs:HueAdjustmentPurple="0"
   crs:HueAdjustmentRed="0"
   crs:HueAdjustmentYellow="0"
   crs:LensManualDistortionAmount="0"
   crs:LensProfileEnable="0"
   crs:LensProfileSetup="LensDefaults"
   crs:LuminanceAdjustmentAqua="0"
   crs:LuminanceAdjustmentBlue="0"
   crs:LuminanceAdjustmentGreen="0"
   crs:LuminanceAdjustmentMagenta="0"
   crs:LuminanceAdjustmentOrange="0"
   crs:LuminanceAdjustmentPurple="0"
   crs:LuminanceAdjustmentRed="0"
   crs:LuminanceAdjustmentYellow="0"
   crs:LuminanceNoiseReductionContrast="0"
   crs:LuminanceNoiseReductionDetail="50"
   crs:LuminanceSmoothing="0"
   crs:ParametricDarks="0"
   crs:ParametricHighlightSplit="75"
   crs:ParametricHighlights="0"
   crs:ParametricLights="0"
   crs:ParametricMidtoneSplit="50"
   crs:ParametricShadowSplit="25"
   crs:ParametricShadows="0"
   crs:PerspectiveAspect="0"
   crs:PerspectiveHorizontal="0"
   crs:PerspectiveRotate="0"
   crs:PerspectiveScale="100"
   crs:PerspectiveUpright="0"
   crs:PerspectiveVertical="0"
   crs:PostCropVignetteAmount="0"
   crs:PostCropVignetteFeather="50"
   crs:PostCropVignetteHighlightContrast="0"
   crs:PostCropVignetteMidpoint="50"
   crs:PostCropVignetteRoundness="0"
   crs:PostCropVignetteStyle="1"
   crs:ProcessVersion="6.7"
   crs:RedHue="0"
   crs:RedSaturation="0"
   crs:Saturation="-30"
   crs:SaturationAdjustmentAqua="0"
   crs:SaturationAdjustmentBlue="0"
   crs:SaturationAdjustmentGreen="0"
   crs:SaturationAdjustmentMagenta="0"
   crs:SaturationAdjustmentOrange="0"
   crs:SaturationAdjustmentPurple="0"
   crs:SaturationAdjustmentRed="0"
   crs:SaturationAdjustmentYellow="0"
   crs:ShadowTint="0"
   crs:Shadows2012="0"
   crs:SharpenDetail="25"
   crs:SharpenEdgeMasking="0"
   crs:SharpenRadius="1"
   crs:Sharpness="100"
   crs:SplitToningBalance="0"
   crs:SplitToningHighlightHue="0"
   crs:SplitToningHighlightSaturation="0"
   crs:SplitToningShadowHue="0"
   crs:SplitToningShadowSaturation="0"
   crs:ToneCurveName2012="Custom"
   crs:ToneCurvePV2012="{"
   crs:ToneCurvePV2012Blue="{"
   crs:ToneCurvePV2012Green="{"
   crs:ToneCurvePV2012Red="{"
   crs:Vibrance="30"
   crs:VignetteAmount="0"
   crs:VignetteMidpoint="50"
   crs:WhiteBalance="As Shot"
   crs:Whites2012="0"
   crs:orientation="AB"
   crs:uuid="0098DD71-4A44-45F7-B9A6-ECF5B174321C">
   <crs:Name>
    <rdf:Alt>
     <rdf:li xml:lang="x-default">Contrastly - Portrait Retouch Vol 2 - Portraits 2</rdf:li>
    </rdf:Alt>
   </crs:Name>
   <crs:ShortName>
    <rdf:li xml:lang="x-default"/>
   </crs:ShortName>
   <crs:SortName>
    <rdf:li xml:lang="x-default"/>
   </crs:SortName>
   <crs:Group>
    <rdf:li xml:lang="x-default">Converted Presets</rdf:li>
   </crs:Group>
   <crs:Description>
    <rdf:li xml:lang="x-default"/>
   </crs:Description>
  </rdf:Description>
 </rdf:RDF>
</x:xmpmeta>