dist/PhotoLab/_internal/plugin/Kodachrome_64.xmp
<x:xmpmeta xmlns:x="adobe:ns:meta/" x:xmptk="Adobe XMP Core 5.6-c140 79.160451, 2017/05/06-01:08:21        ">
 <rdf:RDF xmlns:rdf="http://w3.org">
  <rdf:Description rdf:about=""
    xmlns:crs="http://adobe.com"
   crs:PresetType="Normal"
   crs:Cluster=""
   crs:UUID="1A55FF7B-CA9F-44D9-CE94-90DECB056CFF"
   crs:SupportsAmount="False"
   crs:SupportsColor="True"
   crs:SupportsMonochrome="True"
   crs:SupportsHighDynamicRange="True"
   crs:SupportsNormalDynamicRange="True"
   crs:SupportsSceneReferred="True"
   crs:SupportsOutputReferred="True"
   crs:CameraModelRestriction=""
   crs:Copyright=""
   crs:ContactInfo=""
   crs:Version="10.3"
   crs:ProcessVersion="6.7"
   crs:s="{"
   crs:settings="{"
   crs:Exposure="0.0"
   crs:Contrast="+18"
   crs:Highlights="-5"
   crs:Shadows="-12"
   crs:Blacks="-10"
   crs:Clarity="+10"
   crs:Vibrance="+8"
   crs:Saturation="-5"
   crs:Temperature="+5"
   crs:Tint="-2"
   crs:ToneCurveName2012="Custom"
   crs:ToneCurvePV2012="{"
   crs:HueAdjustmentRed="-5"
   crs:SaturationAdjustmentRed="+20"
   crs:LuminanceAdjustmentRed="-8"
   crs:HueAdjustmentOrange="+2"
   crs:SaturationAdjustmentOrange="+5"
   crs:HueAdjustmentGreen="-15"
   crs:SaturationAdjustmentGreen="-10"
   crs:HueAdjustmentBlue="+5"
   crs:SaturationAdjustmentBlue="-8"
   crs:uuid="A69C73CA-060D-4D40-AC6F-19CBB835D166">
   <crs:Name>
    <rdf:Alt>
     <rdf:li xml:lang="x-default">Kodachrome_64</rdf:li>
    </rdf:Alt>
   </crs:Name>
   <crs:ShortName>
    <rdf:li xml:lang="x-default"/>
   </crs:ShortName>
   <crs:SortName>
    <rdf:li xml:lang="x-default"/>
   </crs:SortName>
   <crs:Group>
    <rdf:li xml:lang="x-default">Converted Presets</rdf:li>
   </crs:Group>
   <crs:Description>
    <rdf:li xml:lang="x-default"/>
   </crs:Description>
  </rdf:Description>
 </rdf:RDF>
</x:xmpmeta>