dist/PhotoLab/_internal/plugin/LeicaEnhancer.xmp
<x:xmpmeta xmlns:x="adobe:ns:meta/" x:xmptk="Adobe XMP Core 5.6-c140 79.160451, 2017/05/06-01:08:21        ">
 <rdf:RDF xmlns:rdf="http://w3.org">
  <rdf:Description rdf:about=""
    xmlns:crs="http://adobe.com"
   crs:Version="10.0"
   crs:ProcessVersion="6.7"
   crs:Exposure2012="+0.15"
   crs:Contrast2012="+25"
   crs:Highlights2012="-30"
   crs:Shadows2012="+40"
   crs:Whites2012="+15"
   crs:Blacks2012="-10"
   crs:Clarity2012="+15"
   crs:Texture="+20"
   crs:Dehaze="+5"
   crs:Vibrance="+12"
   crs:Saturation="-2"
   crs:Sharpness="+75"
   crs:SharpenRadius="+1.0"
   crs:SharpenDetail="35"
   crs:SharpenEdgeMasking="20"
   crs:LuminanceSmoothing="+35"
   crs:LuminanceNoiseReductionDetail="50"
   crs:LuminanceNoiseReductionContrast="0"
   crs:ColorNoiseReduction="+25"
   crs:ColorNoiseReductionDetail="50"
   crs:ColorNoiseReductionSmoothness="50"
   crs:GrainAmount="0"
   crs:ParametricShadows="-5"
   crs:ParametricDarks="0"
   crs:ParametricLights="+5"
   crs:ParametricHighlights="0"
   crs:HasSettings="True"/>
 </rdf:RDF>
</x:xmpmeta>
