dist/PhotoLab/_internal/plugin/Portrait HDR-8.xmp
<x:xmpmeta xmlns:x="adobe:ns:meta/" x:xmptk="Adobe XMP Core 5.6-c140 79.160451, 2017/05/06-01:08:21        ">
 <rdf:RDF xmlns:rdf="http://w3.org">
  <rdf:Description rdf:about=""
    xmlns:crs="http://adobe.com"
   crs:PresetType="Normal"
   crs:Cluster=""
   crs:UUID="E8F396D9-1F42-413F-A928-22E490D06FBB"
   crs:SupportsAmount="False"
   crs:SupportsColor="True"
   crs:SupportsMonochrome="True"
   crs:SupportsHighDynamicRange="True"
   crs:SupportsNormalDynamicRange="True"
   crs:SupportsSceneReferred="True"
   crs:SupportsOutputReferred="True"
   crs:CameraModelRestriction=""
   crs:Copyright=""
   crs:ContactInfo=""
   crs:Version="10.3"
   crs:ProcessVersion="6.7"
   crs:s="{"
   crs:settings="{"
   crs:AutoLateralCA="0"
   crs:Blacks2012="-43"
   crs:BlueHue="0"
   crs:BlueSaturation="0"
   crs:CameraProfile="Embedded"
   crs:ChromaticAberrationB="0"
   crs:ChromaticAberrationR="0"
   crs:Clarity2012="33"
   crs:ColorNoiseReduction="0"
   crs:ColorNoiseReductionDetail="50"
   crs:ColorNoiseReductionSmoothness="50"
   crs:Contrast2012="38"
   crs:ConvertToGrayscale="False"
   crs:Defringe="0"
   crs:DefringeGreenAmount="0"
   crs:DefringeGreenHueHi="60"
   crs:DefringeGreenHueLo="40"
   crs:DefringePurpleAmount="0"
   crs:DefringePurpleHueHi="70"
   crs:DefringePurpleHueLo="30"
   crs:EnableCalibration="True"
   crs:EnableColorAdjustments="True"
   crs:EnableDetail="True"
   crs:EnableEffects="True"
   crs:EnableLensCorrections="True"
   crs:EnableSplitToning="True"
   crs:Exposure2012="0"
   crs:GrainAmount="0"
   crs:GrainFrequency="50"
   crs:GrainSize="25"
   crs:GreenHue="0"
   crs:GreenSaturation="0"
   crs:Highlights2012="-2"
   crs:HueAdjustmentAqua="4"
   crs:HueAdjustmentBlue="51"
   crs:HueAdjustmentGreen="31"
   crs:HueAdjustmentMagenta="18"
   crs:HueAdjustmentOrange="-27"
   crs:HueAdjustmentPurple="27"
   crs:HueAdjustmentRed="-24"
   crs:HueAdjustmentYellow="13"
   crs:IncrementalTemperature="0"
   crs:IncrementalTint="10"
   crs:LuminanceAdjustmentAqua="0"
   crs:LuminanceAdjustmentBlue="0"
   crs:LuminanceAdjustmentGreen="0"
   crs:LuminanceAdjustmentMagenta="0"
   crs:LuminanceAdjustmentOrange="0"
   crs:LuminanceAdjustmentPurple="0"
   crs:LuminanceAdjustmentRed="0"
   crs:LuminanceAdjustmentYellow="0"
   crs:LuminanceNoiseReductionContrast="0"
   crs:LuminanceNoiseReductionDetail="50"
   crs:LuminanceSmoothing="0"
   crs:ParametricDarks="0"
   crs:ParametricHighlightSplit="75"
   crs:ParametricHighlights="0"
   crs:ParametricLights="0"
   crs:ParametricMidtoneSplit="50"
   crs:ParametricShadowSplit="25"
   crs:ParametricShadows="0"
   crs:PostCropVignetteAmount="5"
   crs:PostCropVignetteFeather="50"
   crs:PostCropVignetteHighlightContrast="0"
   crs:PostCropVignetteMidpoint="50"
   crs:PostCropVignetteRoundness="0"
   crs:PostCropVignetteStyle="1"
   crs:ProcessVersion="6.7"
   crs:RedHue="0"
   crs:RedSaturation="0"
   crs:Saturation="-10"
   crs:SaturationAdjustmentAqua="0"
   crs:SaturationAdjustmentBlue="0"
   crs:SaturationAdjustmentGreen="0"
   crs:SaturationAdjustmentMagenta="0"
   crs:SaturationAdjustmentOrange="0"
   crs:SaturationAdjustmentPurple="0"
   crs:SaturationAdjustmentRed="0"
   crs:SaturationAdjustmentYellow="0"
   crs:ShadowTint="0"
   crs:Shadows2012="29"
   crs:SharpenDetail="25"
   crs:SharpenEdgeMasking="0"
   crs:SharpenRadius="1"
   crs:Sharpness="0"
   crs:SplitToningBalance="14"
   crs:SplitToningHighlightHue="19"
   crs:SplitToningHighlightSaturation="8"
   crs:SplitToningShadowHue="215"
   crs:SplitToningShadowSaturation="7"
   crs:ToneCurveName2012="Custom"
   crs:ToneCurvePV2012="{"
   crs:ToneCurvePV2012Blue="{"
   crs:ToneCurvePV2012Green="{"
   crs:ToneCurvePV2012Red="{"
   crs:Vibrance="0"
   crs:VignetteAmount="0"
   crs:VignetteMidpoint="50"
   crs:WhiteBalance="Custom"
   crs:Whites2012="-21"
   crs:uuid="D62F448B-BEDB-4284-8C0E-008FCE09C040">
   <crs:Name>
    <rdf:Alt>
     <rdf:li xml:lang="x-default">Portrait HDR-8</rdf:li>
    </rdf:Alt>
   </crs:Name>
   <crs:ShortName>
    <rdf:li xml:lang="x-default"/>
   </crs:ShortName>
   <crs:SortName>
    <rdf:li xml:lang="x-default"/>
   </crs:SortName>
   <crs:Group>
    <rdf:li xml:lang="x-default">Converted Presets</rdf:li>
   </crs:Group>
   <crs:Description>
    <rdf:li xml:lang="x-default"/>
   </crs:Description>
  </rdf:Description>
 </rdf:RDF>
</x:xmpmeta>