dist/PhotoLab/_internal/plugin/saint_marys.xmp
<x:xmpmeta xmlns:x="adobe:ns:meta/" x:xmptk="Adobe XMP Core 7.1-c000">
 <rdf:RDF xmlns:rdf="http://w3.org">
  <rdf:Description rdf:about=""
    xmlns:crs="http://adobe.com"
   crs:Version="16.3"
   crs:ProcessVersion="15.4"
   crs:WhiteBalance="Custom"
   crs:Temperature="5400"
   crs:Tint="+8"
   crs:Exposure="+0.20"
   crs:Contrast="+22"
   crs:Highlights="-45"
   crs:Shadows="+35"
   crs:Whites="+12"
   crs:Blacks="-25"
   crs:Texture="+35"
   crs:Clarity="+25"
   crs:Dehaze="+8"
   crs:Vibrance="+18"
   crs:Saturation="+6"
   crs:HueAdjustmentGreen="+5"
   crs:SaturationAdjustmentGreen="+25"
   crs:LuminanceAdjustmentGreen="-8"
   crs:HueAdjustmentYellow="-3"
   crs:SaturationAdjustmentYellow="+20"
   crs:LuminanceAdjustmentYellow="-5"
   crs:ParametricShadows="0"
   crs:ParametricDarks="0"
   crs:ParametricLights="0"
   crs:ParametricHighlights="0"
   crs:Sharpness="40"
   crs:SharpenRadius="+1.0"
   crs:SharpenDetail="25"
   crs:SharpenEdgeMasking="10"
   crs:LuminanceSmoothing="0"
   crs:ColorNoiseReduction="25"
   crs:ColorNoiseReductionDetail="50"
   crs:ColorNoiseReductionSmoothness="50"
   crs:HasSettings="True">
  </rdf:Description>
 </rdf:RDF>
</x:xmpmeta>
