dist/PhotoLab/_internal/plugin/studio_fine_art_bw.xmp
<x:xmpmeta xmlns:x="adobe:ns:meta/" x:xmptk="Adobe XMP Core 5.6-c140 79.160451, 2017/05/06-01:08:21        ">
 <rdf:RDF xmlns:rdf="http://w3.org">
  <rdf:Description rdf:about=""
    xmlns:crs="http://adobe.com"
   crs:PresetType="Normal"
   crs:Cluster=""
   crs:UUID="99ECDC43-82F0-4E25-8CD3-AA06EA997388"
   crs:SupportsAmount="False"
   crs:SupportsColor="True"
   crs:SupportsMonochrome="True"
   crs:SupportsHighDynamicRange="True"
   crs:SupportsNormalDynamicRange="True"
   crs:SupportsSceneReferred="True"
   crs:SupportsOutputReferred="True"
   crs:CameraModelRestriction=""
   crs:Copyright=""
   crs:ContactInfo=""
   crs:Version="10.3"
   crs:ProcessVersion="6.7"
   crs:s="{"
   crs:settings="{"
   crs:BlackAndWhiteAqua="-25"
   crs:BlackAndWhiteBlue="-45"
   crs:BlackAndWhiteMagenta="-10"
   crs:BlackAndWhiteOrange="0"
   crs:BlackAndWhitePurple="-20"
   crs:BlackAndWhiteRed="-5"
   crs:Blacks2012="-10"
   crs:ConvertToServerRGB="False"
   crs:GrainAmount="0"
   crs:HasSettings="True"
   crs:Highlights2012="-12"
   crs:ProcessVersion="15.4"
   crs:Version="16.0"
   crs:uuid="99ECDC43-82F0-4E25-8CD3-AA06EA997388">
   <crs:Name>
    <rdf:Alt>
     <rdf:li xml:lang="x-default">studio_fine_art_bw</rdf:li>
    </rdf:Alt>
   </crs:Name>
   <crs:ShortName>
    <rdf:li xml:lang="x-default"/>
   </crs:ShortName>
   <crs:SortName>
    <rdf:li xml:lang="x-default"/>
   </crs:SortName>
   <crs:Group>
    <rdf:li xml:lang="x-default">Converted Presets</rdf:li>
   </crs:Group>
   <crs:Description>
    <rdf:li xml:lang="x-default"/>
   </crs:Description>
  </rdf:Description>
 </rdf:RDF>
</x:xmpmeta>